(G-CODE GENERATED BY FLATCAM v8.993 - www.flatcam.org - Version Date: 2020/06/05)

(Name: Output)
(Type: G-code from Geometry)
(Units: MM)

(Created on Thursday, 12 November 2020 at 22:07)

(This preprocessor is the default preprocessor used by FlatCAM.)
(It is made to work with MACH3 compatible motion controllers.)

(TOOL DIAMETER: 0.2353 mm)
(Feedrate_XY: 80.0 mm/min)
(Feedrate_Z: 15.0 mm/min)
(Feedrate rapids 1500.0 mm/min)

(Z_Cut: -0.35 mm)
(Z_Move: 2.0 mm)
(Z Start: None mm)
(Z End: 15.0 mm)
(Steps per circle: 64)
(Preprocessor Geometry: default)

(X range:   -0.3289 ...   45.3289  mm)
(Y range:   -0.3289 ...   40.4770  mm)

(Spindle Speed: 5000 RPM)
G21
G90
G94



G01 F80.00
G00 Z2.0000

M03 S5000
G00 X-0.3288 Y-0.1817
G01 F15.00
G01 Z-0.3500
G01 F80.00
G01 X-0.3281 Y-0.1921
G01 X-0.3234 Y-0.2174
G01 X-0.3215 Y-0.2247
G01 X-0.3179 Y-0.2344
G01 X-0.3140 Y-0.2426
G01 X-0.3017 Y-0.2641
G01 X-0.2945 Y-0.2738
G01 X-0.2885 Y-0.2805
G01 X-0.2698 Y-0.2974
G01 X-0.2655 Y-0.3009
G01 X-0.2557 Y-0.3073
G01 X-0.2473 Y-0.3117
G01 X-0.2260 Y-0.3208
G01 X-0.2131 Y-0.3248
G01 X-0.2025 Y-0.3267
G01 X-0.1838 Y-0.3287
G01 X-0.1778 Y-0.3289
G01 X45.1778 Y-0.3289
G01 X45.1921 Y-0.3281
G01 X45.2193 Y-0.3230
G01 X45.2247 Y-0.3215
G01 X45.2327 Y-0.3186
G01 X45.2426 Y-0.3140
G01 X45.2641 Y-0.3017
G01 X45.2766 Y-0.2922
G01 X45.2817 Y-0.2872
G01 X45.2893 Y-0.2784
G01 X45.2974 Y-0.2698
G01 X45.3020 Y-0.2640
G01 X45.3063 Y-0.2573
G01 X45.3117 Y-0.2473
G01 X45.3208 Y-0.2260
G01 X45.3232 Y-0.2188
G01 X45.3252 Y-0.2114
G01 X45.3265 Y-0.2043
G01 X45.3287 Y-0.1838
G01 X45.3289 Y-0.1778
G01 X45.3289 Y24.9972
G01 X45.3285 Y25.0049
G01 X45.3257 Y25.0273
G01 X45.3222 Y25.0419
G01 X45.3185 Y25.0521
G01 X45.3133 Y25.0621
G01 X45.3077 Y25.0742
G01 X45.3048 Y25.0791
G01 X45.2978 Y25.0890
G01 X45.2846 Y25.1040
G01 X31.2818 Y39.1068
G01 X31.2766 Y39.1116
G01 X31.2679 Y39.1180
G01 X31.2581 Y39.1261
G01 X31.2505 Y39.1309
G01 X31.2383 Y39.1372
G01 X31.2162 Y39.1452
G01 X31.2077 Y39.1476
G01 X31.1942 Y39.1499
G01 X31.1750 Y39.1511
G01 X30.6627 Y39.1511
G01 X30.6569 Y39.1507
G01 X30.6345 Y39.1479
G01 X30.6273 Y39.1464
G01 X30.6164 Y39.1433
G01 X30.6080 Y39.1399
G01 X30.5997 Y39.1355
G01 X30.5909 Y39.1317
G01 X30.5843 Y39.1280
G01 X30.5728 Y39.1200
G01 X30.5592 Y39.1083
G01 X30.2931 Y38.8422
G01 X29.9472 Y38.6989
G01 X29.5728 Y38.6989
G01 X29.2269 Y38.8422
G01 X28.9622 Y39.1068
G01 X28.9570 Y39.1116
G01 X28.9483 Y39.1180
G01 X28.9413 Y39.1240
G01 X28.9355 Y39.1282
G01 X28.9238 Y39.1348
G01 X28.9169 Y39.1379
G01 X28.9057 Y39.1416
G01 X28.8966 Y39.1452
G01 X28.8881 Y39.1476
G01 X28.8746 Y39.1499
G01 X28.8571 Y39.1511
G01 X15.4227 Y39.1511
G01 X15.4169 Y39.1507
G01 X15.3945 Y39.1479
G01 X15.3873 Y39.1464
G01 X15.3747 Y39.1427
G01 X15.3680 Y39.1399
G01 X15.3597 Y39.1355
G01 X15.3476 Y39.1299
G01 X15.3411 Y39.1259
G01 X15.3299 Y39.1176
G01 X15.3178 Y39.1068
G01 X15.0531 Y38.8422
G01 X14.7072 Y38.6989
G01 X14.3328 Y38.6989
G01 X13.9869 Y38.8422
G01 X13.8222 Y39.0067
G01 X13.8135 Y39.0136
G01 X13.7950 Y39.0263
G01 X13.7870 Y39.0308
G01 X13.7747 Y39.0360
G01 X13.7487 Y39.0434
G01 X13.7361 Y39.0455
G01 X13.7254 Y39.0461
G01 X13.7123 Y39.0451
G01 X13.6992 Y39.0447
G01 X13.6921 Y39.0437
G01 X13.6854 Y39.0422
G01 X13.6747 Y39.0389
G01 X13.6535 Y39.0305
G01 X13.6470 Y39.0273
G01 X13.6389 Y39.0225
G01 X13.6341 Y39.0192
G01 X13.6179 Y39.0062
G01 X13.6134 Y39.0020
G01 X-0.2846 Y25.1040
G01 X-0.2905 Y25.0975
G01 X-0.2958 Y25.0901
G01 X-0.3018 Y25.0831
G01 X-0.3050 Y25.0788
G01 X-0.3126 Y25.0656
G01 X-0.3164 Y25.0569
G01 X-0.3194 Y25.0475
G01 X-0.3235 Y25.0368
G01 X-0.3254 Y25.0299
G01 X-0.3277 Y25.0164
G01 X-0.3289 Y24.9972
G01 X-0.3288 Y-0.1817
G00 Z2.0000
G00 X7.5379 Y1.1027
G01 F15.00
G01 Z-0.3500
G01 F80.00
G01 X7.5396 Y1.0972
G01 X7.5438 Y1.0789
G01 X7.5459 Y1.0559
G01 X7.5459 Y0.7159
G01 X7.6509 Y0.6109
G01 X7.9183 Y0.6109
G01 X7.9340 Y0.6099
G01 X7.9524 Y0.6070
G01 X7.9729 Y0.6006
G01 X8.0883 Y0.5529
G01 X8.3617 Y0.5529
G01 X8.4814 Y0.6023
G01 X8.4885 Y0.6046
G01 X8.5015 Y0.6078
G01 X8.5086 Y0.6091
G01 X8.5317 Y0.6109
G01 X8.7991 Y0.6109
G01 X8.9041 Y0.7159
G01 X8.9043 Y0.7253
G01 X8.9068 Y0.7476
G01 X8.9098 Y0.7603
G01 X8.9129 Y0.7693
G01 X8.9230 Y0.7922
G01 X8.9289 Y0.8024
G01 X8.9356 Y0.8113
G01 X8.9437 Y0.8199
G01 X8.9513 Y0.8287
G01 X8.9578 Y0.8349
G01 X8.9674 Y0.8422
G01 X8.9904 Y0.8555
G01 X8.9969 Y0.8587
G01 X9.0065 Y0.8624
G01 X9.0137 Y0.8645
G01 X9.0391 Y0.8693
G01 X9.0464 Y0.8701
G01 X9.0552 Y0.8704
G01 X13.7592 Y0.8704
G01 X14.0117 Y0.9750
G01 X15.1025 Y2.0658
G01 X15.2071 Y2.3183
G01 X15.2071 Y3.3736
G01 X15.2080 Y3.3891
G01 X15.2089 Y3.3966
G01 X15.2103 Y3.4046
G01 X15.2119 Y3.4115
G01 X15.2203 Y3.4351
G01 X15.2243 Y3.4437
G01 X15.2321 Y3.4567
G01 X15.2402 Y3.4665
G01 X15.2455 Y3.4739
G01 X15.2501 Y3.4792
G01 X15.3178 Y3.5469
G01 X15.4611 Y3.8928
G01 X15.4611 Y4.2672
G01 X15.3178 Y4.6131
G01 X15.0531 Y4.8778
G01 X14.7072 Y5.0211
G01 X14.3328 Y5.0211
G01 X14.1602 Y4.9498
G01 X14.1533 Y4.9478
G01 X14.1357 Y4.9437
G01 X14.1127 Y4.9416
G01 X10.0859 Y4.9416
G01 X9.9809 Y4.8366
G01 X9.9809 Y3.1009
G01 X10.0859 Y2.9959
G01 X13.6878 Y2.9957
G01 X13.7119 Y2.9929
G01 X13.7264 Y2.9891
G01 X13.7547 Y2.9770
G01 X13.7597 Y2.9743
G01 X13.7680 Y2.9690
G01 X13.7738 Y2.9644
G01 X13.7824 Y2.9563
G01 X13.7912 Y2.9487
G01 X13.7985 Y2.9408
G01 X13.8066 Y2.9295
G01 X13.8180 Y2.9096
G01 X13.8212 Y2.9031
G01 X13.8249 Y2.8935
G01 X13.8270 Y2.8863
G01 X13.8323 Y2.8573
G01 X13.8329 Y2.8448
G01 X13.8327 Y2.7972
G01 X13.8315 Y2.7814
G01 X13.8297 Y2.7712
G01 X13.8281 Y2.7643
G01 X13.8190 Y2.7389
G01 X13.8166 Y2.7338
G01 X13.8109 Y2.7236
G01 X13.8058 Y2.7163
G01 X13.7998 Y2.7093
G01 X13.7934 Y2.7006
G01 X13.7886 Y2.6954
G01 X13.3792 Y2.2861
G01 X13.3670 Y2.2756
G01 X13.3552 Y2.2675
G01 X13.3490 Y2.2641
G01 X13.3403 Y2.2602
G01 X13.3283 Y2.2542
G01 X13.3199 Y2.2513
G01 X13.3072 Y2.2481
G01 X13.2811 Y2.2448
G01 X8.4058 Y2.2446
G01 X8.1533 Y2.1400
G01 X7.9252 Y1.9119
G01 X7.9115 Y1.9001
G01 X7.9026 Y1.8938
G01 X7.8965 Y1.8901
G01 X7.8847 Y1.8847
G01 X7.8747 Y1.8795
G01 X7.8645 Y1.8758
G01 X7.8499 Y1.8723
G01 X7.8256 Y1.8693
G01 X7.6509 Y1.8691
G01 X7.5459 Y1.7641
G01 X7.5459 Y1.4242
G01 X7.5454 Y1.4137
G01 X7.5428 Y1.3956
G01 X7.5410 Y1.3881
G01 X7.5379 Y1.3788
G01 X7.5379 Y1.1027
G00 Z2.0000
G00 X7.6500 Y1.1455
G01 F15.00
G01 Z-0.3500
G01 F80.00
G01 X7.6502 Y0.7845
G01 X7.6511 Y0.7772
G01 X7.6527 Y0.7700
G01 X7.6550 Y0.7630
G01 X7.6580 Y0.7563
G01 X7.6616 Y0.7499
G01 X7.6659 Y0.7439
G01 X7.6707 Y0.7383
G01 X7.6760 Y0.7332
G01 X7.6849 Y0.7266
G01 X7.6913 Y0.7230
G01 X7.6963 Y0.7207
G01 X7.7032 Y0.7182
G01 X7.7086 Y0.7168
G01 X7.7195 Y0.7152
G01 X7.9723 Y0.7150
G01 X8.0035 Y0.7005
G01 X8.0539 Y0.6824
G01 X8.1094 Y0.6683
G01 X8.1678 Y0.6596
G01 X8.2232 Y0.6568
G01 X8.2822 Y0.6596
G01 X8.3406 Y0.6683
G01 X8.3961 Y0.6824
G01 X8.4465 Y0.7005
G01 X8.4777 Y0.7150
G01 X8.7268 Y0.7150
G01 X8.7360 Y0.7158
G01 X8.7432 Y0.7172
G01 X8.7520 Y0.7200
G01 X8.7604 Y0.7239
G01 X8.7682 Y0.7287
G01 X8.7754 Y0.7344
G01 X8.7806 Y0.7396
G01 X8.7863 Y0.7468
G01 X8.7911 Y0.7546
G01 X8.7943 Y0.7613
G01 X8.7973 Y0.7700
G01 X8.7992 Y0.7790
G01 X8.8000 Y0.7900
G01 X8.8000 Y0.9742
G01 X13.6225 Y0.9742
G01 X13.6797 Y0.9771
G01 X13.7363 Y0.9855
G01 X13.7918 Y0.9994
G01 X13.8457 Y1.0186
G01 X13.8974 Y1.0431
G01 X13.9465 Y1.0725
G01 X13.9925 Y1.1066
G01 X14.0336 Y1.1438
G01 X14.9324 Y2.0426
G01 X14.9709 Y2.0850
G01 X15.0050 Y2.1310
G01 X15.0344 Y2.1801
G01 X15.0589 Y2.2318
G01 X15.0781 Y2.2857
G01 X15.0920 Y2.3412
G01 X15.1004 Y2.3978
G01 X15.1032 Y2.4532
G01 X15.1033 Y3.4802
G01 X15.1144 Y3.4908
G01 X15.1646 Y3.5462
G01 X15.1693 Y3.5519
G01 X15.2159 Y3.6150
G01 X15.2564 Y3.6822
G01 X15.2598 Y3.6887
G01 X15.2933 Y3.7597
G01 X15.3210 Y3.8370
G01 X15.3409 Y3.9167
G01 X15.3530 Y3.9980
G01 X15.3570 Y4.0800
G01 X15.3532 Y4.1584
G01 X15.3525 Y4.1657
G01 X15.3409 Y4.2433
G01 X15.3219 Y4.3194
G01 X15.3198 Y4.3265
G01 X15.2933 Y4.4003
G01 X15.2582 Y4.4746
G01 X15.2179 Y4.5419
G01 X15.2138 Y4.5480
G01 X15.1670 Y4.6110
G01 X15.1144 Y4.6692
G01 X15.1092 Y4.6744
G01 X15.0510 Y4.7270
G01 X14.9880 Y4.7738
G01 X14.9819 Y4.7779
G01 X14.9146 Y4.8182
G01 X14.8437 Y4.8518
G01 X14.8369 Y4.8546
G01 X14.7630 Y4.8810
G01 X14.6869 Y4.9001
G01 X14.6797 Y4.9015
G01 X14.6002 Y4.9131
G01 X14.5237 Y4.9169
G01 X14.5163 Y4.9169
G01 X14.4380 Y4.9130
G01 X14.3585 Y4.9013
G01 X14.2753 Y4.8804
G01 X14.2014 Y4.8540
G01 X14.1662 Y4.8375
G01 X10.1600 Y4.8375
G01 X10.1526 Y4.8372
G01 X10.1454 Y4.8361
G01 X10.1382 Y4.8343
G01 X10.1313 Y4.8318
G01 X10.1214 Y4.8269
G01 X10.1124 Y4.8205
G01 X10.1044 Y4.8129
G01 X10.0976 Y4.8042
G01 X10.0922 Y4.7946
G01 X10.0882 Y4.7843
G01 X10.0858 Y4.7736
G01 X10.0850 Y4.7625
G01 X10.0850 Y3.1732
G01 X10.0858 Y3.1640
G01 X10.0877 Y3.1550
G01 X10.0907 Y3.1463
G01 X10.0957 Y3.1365
G01 X10.1020 Y3.1275
G01 X10.1083 Y3.1207
G01 X10.1153 Y3.1148
G01 X10.1230 Y3.1098
G01 X10.1313 Y3.1058
G01 X10.1418 Y3.1023
G01 X10.1508 Y3.1006
G01 X10.1600 Y3.1001
G01 X13.9367 Y3.1000
G01 X13.9367 Y2.6966
G01 X13.3809 Y2.1408
G01 X8.5425 Y2.1408
G01 X8.4853 Y2.1379
G01 X8.4323 Y2.1302
G01 X8.4251 Y2.1287
G01 X8.3732 Y2.1156
G01 X8.3193 Y2.0964
G01 X8.2676 Y2.0719
G01 X8.2216 Y2.0444
G01 X8.2155 Y2.0403
G01 X8.1725 Y2.0084
G01 X8.1314 Y1.9712
G01 X7.9252 Y1.7650
G01 X7.7250 Y1.7650
G01 X7.7158 Y1.7644
G01 X7.7086 Y1.7632
G01 X7.7015 Y1.7612
G01 X7.6946 Y1.7586
G01 X7.6880 Y1.7553
G01 X7.6818 Y1.7513
G01 X7.6760 Y1.7468
G01 X7.6707 Y1.7417
G01 X7.6659 Y1.7361
G01 X7.6597 Y1.7270
G01 X7.6564 Y1.7204
G01 X7.6544 Y1.7153
G01 X7.6514 Y1.7046
G01 X7.6506 Y1.6992
G01 X7.6500 Y1.6918
G01 X7.6500 Y1.3345
G01 X7.6446 Y1.2972
G01 X7.6417 Y1.2400
G01 X7.6446 Y1.1828
G01 X7.6500 Y1.1455
G00 Z2.0000
G00 X7.6509 Y4.7109
G01 F15.00
G01 Z-0.3500
G01 F80.00
G01 X8.7991 Y4.7109
G01 X8.9041 Y4.8159
G01 X8.9041 Y5.8641
G01 X8.7991 Y5.9691
G01 X7.6509 Y5.9691
G01 X7.5459 Y5.8641
G01 X7.5459 Y4.8159
G01 X7.6509 Y4.7109
G00 Z2.0000
G00 X7.7250 Y4.8150
G01 F15.00
G01 Z-0.3500
G01 F80.00
G01 X8.7268 Y4.8150
G01 X8.7342 Y4.8156
G01 X8.7414 Y4.8168
G01 X8.7468 Y4.8182
G01 X8.7537 Y4.8207
G01 X8.7604 Y4.8239
G01 X8.7667 Y4.8276
G01 X8.7711 Y4.8309
G01 X8.7767 Y4.8357
G01 X8.7818 Y4.8410
G01 X8.7874 Y4.8483
G01 X8.7911 Y4.8546
G01 X8.7943 Y4.8613
G01 X8.7968 Y4.8682
G01 X8.7986 Y4.8754
G01 X8.7996 Y4.8826
G01 X8.8000 Y4.8900
G01 X8.8000 Y5.7918
G01 X8.7996 Y5.7974
G01 X8.7986 Y5.8046
G01 X8.7968 Y5.8118
G01 X8.7943 Y5.8187
G01 X8.7920 Y5.8237
G01 X8.7884 Y5.8301
G01 X8.7841 Y5.8361
G01 X8.7793 Y5.8417
G01 X8.7740 Y5.8468
G01 X8.7682 Y5.8513
G01 X8.7604 Y5.8561
G01 X8.7537 Y5.8593
G01 X8.7468 Y5.8618
G01 X8.7396 Y5.8636
G01 X8.7324 Y5.8646
G01 X8.7250 Y5.8650
G01 X7.7232 Y5.8650
G01 X7.7158 Y5.8644
G01 X7.7086 Y5.8632
G01 X7.7032 Y5.8618
G01 X7.6963 Y5.8593
G01 X7.6913 Y5.8570
G01 X7.6849 Y5.8534
G01 X7.6789 Y5.8491
G01 X7.6733 Y5.8443
G01 X7.6682 Y5.8390
G01 X7.6637 Y5.8332
G01 X7.6597 Y5.8270
G01 X7.6564 Y5.8204
G01 X7.6538 Y5.8135
G01 X7.6518 Y5.8064
G01 X7.6506 Y5.7992
G01 X7.6500 Y5.7918
G01 X7.6501 Y4.8863
G01 X7.6508 Y4.8790
G01 X7.6522 Y4.8718
G01 X7.6544 Y4.8647
G01 X7.6564 Y4.8596
G01 X7.6597 Y4.8530
G01 X7.6637 Y4.8468
G01 X7.6682 Y4.8410
G01 X7.6733 Y4.8357
G01 X7.6789 Y4.8309
G01 X7.6849 Y4.8266
G01 X7.6913 Y4.8230
G01 X7.6980 Y4.8200
G01 X7.7032 Y4.8182
G01 X7.7104 Y4.8164
G01 X7.7176 Y4.8154
G01 X7.7250 Y4.8150
G00 Z2.0000
G00 X10.1600 Y5.6400
G01 F15.00
G01 Z-0.3500
G01 F80.00
G01 X14.6105 Y5.6402
G01 X14.6214 Y5.6418
G01 X14.6303 Y5.6444
G01 X14.6404 Y5.6489
G01 X14.6482 Y5.6537
G01 X14.6554 Y5.6594
G01 X14.6630 Y5.6674
G01 X14.6684 Y5.6749
G01 X14.6736 Y5.6846
G01 X14.6756 Y5.6897
G01 X14.6778 Y5.6968
G01 X14.6792 Y5.7040
G01 X14.6799 Y5.7113
G01 X14.6800 Y5.7985
G01 X14.6869 Y5.7999
G01 X14.7594 Y5.8181
G01 X14.7665 Y5.8202
G01 X14.8403 Y5.8467
G01 X14.9146 Y5.8818
G01 X14.9850 Y5.9241
G01 X15.0481 Y5.9707
G01 X15.0538 Y5.9754
G01 X15.1092 Y6.0256
G01 X15.1198 Y6.0367
G01 X23.6184 Y6.0367
G01 X28.4801 Y1.1751
G01 X28.5225 Y1.1366
G01 X28.5655 Y1.1047
G01 X28.5716 Y1.1006
G01 X28.6144 Y1.0749
G01 X28.6208 Y1.0715
G01 X28.6659 Y1.0501
G01 X28.6727 Y1.0473
G01 X28.7232 Y1.0294
G01 X28.7751 Y1.0163
G01 X28.7823 Y1.0148
G01 X28.8353 Y1.0071
G01 X28.8925 Y1.0042
G01 X33.9725 Y1.0042
G01 X34.0260 Y1.0068
G01 X34.0333 Y1.0075
G01 X34.0863 Y1.0155
G01 X34.1400 Y1.0288
G01 X34.1957 Y1.0486
G01 X34.2442 Y1.0715
G01 X34.2506 Y1.0749
G01 X34.2965 Y1.1025
G01 X34.3396 Y1.1344
G01 X34.3453 Y1.1390
G01 X34.3836 Y1.1738
G01 X36.6074 Y3.3976
G01 X36.6435 Y3.4372
G01 X36.6481 Y3.4429
G01 X36.6800 Y3.4860
G01 X36.7094 Y3.5351
G01 X36.7324 Y3.5834
G01 X36.7352 Y3.5902
G01 X36.7531 Y3.6407
G01 X36.7667 Y3.6944
G01 X36.7754 Y3.7528
G01 X36.7783 Y3.8100
G01 X36.7783 Y13.0934
G01 X37.7066 Y14.0217
G01 X38.8828 Y14.0217
G01 X38.8876 Y14.0133
G01 X38.8944 Y14.0046
G01 X38.9010 Y13.9982
G01 X38.9099 Y13.9916
G01 X38.9196 Y13.9864
G01 X38.9300 Y13.9827
G01 X38.9408 Y13.9806
G01 X38.9500 Y13.9800
G01 X44.0300 Y13.9800
G01 X44.0410 Y13.9808
G01 X44.0518 Y13.9832
G01 X44.0621 Y13.9872
G01 X44.0717 Y13.9926
G01 X44.0776 Y13.9970
G01 X44.0817 Y14.0007
G01 X44.0891 Y14.0089
G01 X44.0934 Y14.0149
G01 X44.0961 Y14.0196
G01 X44.1006 Y14.0297
G01 X44.1036 Y14.0404
G01 X44.1049 Y14.0513
G01 X44.1050 Y15.3250
G01 X44.1044 Y15.3342
G01 X44.1023 Y15.3450
G01 X44.0986 Y15.3554
G01 X44.0961 Y15.3604
G01 X44.0924 Y15.3667
G01 X44.0880 Y15.3726
G01 X44.0843 Y15.3767
G01 X44.0790 Y15.3818
G01 X44.0747 Y15.3852
G01 X44.0654 Y15.3911
G01 X44.0587 Y15.3943
G01 X44.0535 Y15.3962
G01 X44.0464 Y15.3982
G01 X44.0410 Y15.3992
G01 X44.0300 Y15.4000
G01 X38.9482 Y15.4000
G01 X38.9372 Y15.3989
G01 X38.9318 Y15.3978
G01 X38.9247 Y15.3956
G01 X38.9146 Y15.3911
G01 X38.9053 Y15.3852
G01 X38.8970 Y15.3780
G01 X38.8898 Y15.3697
G01 X38.8839 Y15.3604
G01 X38.8794 Y15.3503
G01 X38.8764 Y15.3396
G01 X38.8754 Y15.3324
G01 X38.8750 Y15.3268
G01 X38.8750 Y15.1883
G01 X37.4650 Y15.1883
G01 X37.4078 Y15.1854
G01 X37.3512 Y15.1770
G01 X37.2992 Y15.1641
G01 X37.2922 Y15.1620
G01 X37.2418 Y15.1439
G01 X37.1901 Y15.1194
G01 X37.1441 Y15.0919
G01 X37.1380 Y15.0878
G01 X37.0950 Y15.0559
G01 X37.0552 Y15.0200
G01 X35.7826 Y13.7474
G01 X35.7430 Y13.7036
G01 X35.7100 Y13.6590
G01 X35.6806 Y13.6099
G01 X35.6561 Y13.5582
G01 X35.6380 Y13.5078
G01 X35.6359 Y13.5008
G01 X35.6238 Y13.4524
G01 X35.6223 Y13.4452
G01 X35.6146 Y13.3922
G01 X35.6118 Y13.3368
G01 X35.6117 Y4.0516
G01 X33.7309 Y2.1708
G01 X29.1341 Y2.1708
G01 X24.2711 Y7.0337
G01 X24.2300 Y7.0709
G01 X24.1870 Y7.1028
G01 X24.1809 Y7.1069
G01 X24.1381 Y7.1326
G01 X24.1317 Y7.1360
G01 X24.0832 Y7.1589
G01 X24.0293 Y7.1781
G01 X23.9738 Y7.1920
G01 X23.9208 Y7.2000
G01 X23.9135 Y7.2007
G01 X23.8600 Y7.2033
G01 X15.1198 Y7.2033
G01 X15.1092 Y7.2144
G01 X15.0510 Y7.2670
G01 X14.9850 Y7.3159
G01 X14.9146 Y7.3582
G01 X14.8403 Y7.3933
G01 X14.7630 Y7.4210
G01 X14.6833 Y7.4409
G01 X14.6020 Y7.4530
G01 X14.5200 Y7.4570
G01 X14.4416 Y7.4532
G01 X14.4343 Y7.4525
G01 X14.3567 Y7.4409
G01 X14.2806 Y7.4219
G01 X14.2735 Y7.4198
G01 X14.1997 Y7.3933
G01 X14.1238 Y7.3573
G01 X14.0581 Y7.3179
G01 X14.0520 Y7.3138
G01 X13.9890 Y7.2670
G01 X13.9295 Y7.2131
G01 X13.8718 Y7.1495
G01 X13.8251 Y7.0865
G01 X13.8090 Y7.0600
G01 X10.1600 Y7.0600
G01 X10.1508 Y7.0594
G01 X10.1436 Y7.0582
G01 X10.1382 Y7.0568
G01 X10.1330 Y7.0550
G01 X10.1263 Y7.0520
G01 X10.1199 Y7.0484
G01 X10.1153 Y7.0452
G01 X10.1096 Y7.0406
G01 X10.1057 Y7.0367
G01 X10.1009 Y7.0311
G01 X10.0966 Y7.0251
G01 X10.0930 Y7.0187
G01 X10.0907 Y7.0137
G01 X10.0882 Y7.0068
G01 X10.0868 Y7.0014
G01 X10.0856 Y6.9942
G01 X10.0851 Y6.9887
G01 X10.0850 Y5.7150
G01 X10.0854 Y5.7076
G01 X10.0864 Y5.7004
G01 X10.0882 Y5.6932
G01 X10.0907 Y5.6863
G01 X10.0939 Y5.6796
G01 X10.0976 Y5.6733
G01 X10.1020 Y5.6674
G01 X10.1070 Y5.6620
G01 X10.1124 Y5.6570
G01 X10.1183 Y5.6526
G01 X10.1246 Y5.6489
G01 X10.1313 Y5.6457
G01 X10.1382 Y5.6432
G01 X10.1454 Y5.6414
G01 X10.1526 Y5.6404
G01 X10.1600 Y5.6400
G00 Z2.0000
G00 X13.7116 Y7.1699
G01 F15.00
G01 Z-0.3500
G01 F80.00
G01 X13.7061 Y7.1683
G01 X13.6989 Y7.1670
G01 X13.6887 Y7.1660
G01 X13.6783 Y7.1645
G01 X13.6706 Y7.1641
G01 X10.0859 Y7.1641
G01 X9.9809 Y7.0591
G01 X9.9809 Y5.6409
G01 X10.0859 Y5.5359
G01 X14.6791 Y5.5359
G01 X14.7882 Y5.6450
G01 X14.7907 Y5.6529
G01 X14.8003 Y5.6772
G01 X14.8037 Y5.6841
G01 X14.8072 Y5.6902
G01 X14.8118 Y5.6965
G01 X14.8300 Y5.7180
G01 X14.8354 Y5.7233
G01 X14.8417 Y5.7284
G01 X14.8670 Y5.7441
G01 X14.8756 Y5.7486
G01 X15.0531 Y5.8222
G01 X15.1210 Y5.8901
G01 X15.1331 Y5.9006
G01 X15.1445 Y5.9088
G01 X15.1510 Y5.9126
G01 X15.1615 Y5.9173
G01 X15.1698 Y5.9217
G01 X15.1799 Y5.9257
G01 X15.1909 Y5.9287
G01 X15.1963 Y5.9297
G01 X15.2225 Y5.9328
G01 X23.5128 Y5.9329
G01 X23.5318 Y5.9317
G01 X23.5472 Y5.9290
G01 X23.5540 Y5.9270
G01 X23.5631 Y5.9234
G01 X23.5743 Y5.9197
G01 X23.5812 Y5.9166
G01 X23.5883 Y5.9127
G01 X23.5973 Y5.9069
G01 X23.6057 Y5.8998
G01 X23.6144 Y5.8934
G01 X23.6196 Y5.8886
G01 X28.5033 Y1.0050
G01 X28.7558 Y0.9004
G01 X34.1092 Y0.9004
G01 X34.3617 Y1.0050
G01 X36.7775 Y3.4208
G01 X36.8821 Y3.6733
G01 X36.8821 Y4.7059
G01 X36.8827 Y4.7205
G01 X36.8852 Y4.7365
G01 X36.8875 Y4.7454
G01 X36.8943 Y4.7653
G01 X36.9015 Y4.7799
G01 X36.9064 Y4.7881
G01 X36.9126 Y4.7959
G01 X36.9183 Y4.8039
G01 X36.9247 Y4.8110
G01 X36.9367 Y4.8222
G01 X36.9534 Y4.8341
G01 X36.9615 Y4.8389
G01 X36.9783 Y4.8467
G01 X36.9976 Y4.8526
G01 X37.0049 Y4.8544
G01 X37.0209 Y4.8565
G01 X37.0284 Y4.8570
G01 X37.0486 Y4.8562
G01 X37.0576 Y4.8551
G01 X37.0701 Y4.8525
G01 X37.0773 Y4.8505
G01 X37.0874 Y4.8463
G01 X37.0942 Y4.8440
G01 X37.1011 Y4.8410
G01 X37.1192 Y4.8302
G01 X37.1346 Y4.8177
G01 X37.1400 Y4.8128
G01 X37.4014 Y4.5513
G01 X37.4124 Y4.5383
G01 X37.4188 Y4.5293
G01 X37.4226 Y4.5228
G01 X37.4274 Y4.5121
G01 X37.4318 Y4.5036
G01 X37.4346 Y4.4970
G01 X37.4382 Y4.4846
G01 X37.4400 Y4.4756
G01 X37.4410 Y4.4654
G01 X37.4425 Y4.4550
G01 X37.4429 Y4.4473
G01 X37.4429 Y2.1082
G01 X37.4425 Y2.1002
G01 X37.4399 Y2.0781
G01 X37.4372 Y2.0672
G01 X37.4341 Y2.0582
G01 X37.4240 Y2.0353
G01 X37.4213 Y2.0303
G01 X37.4160 Y2.0220
G01 X37.4114 Y2.0162
G01 X37.4033 Y2.0076
G01 X37.3957 Y1.9988
G01 X37.3919 Y1.9950
G01 X37.3864 Y1.9904
G01 X37.3811 Y1.9864
G01 X37.3750 Y1.9824
G01 X37.3550 Y1.9712
G01 X37.3467 Y1.9674
G01 X37.3387 Y1.9645
G01 X37.3333 Y1.9630
G01 X37.3043 Y1.9577
G01 X37.2918 Y1.9571
G01 X36.0583 Y1.9571
G01 X35.8058 Y1.8525
G01 X35.6125 Y1.6592
G01 X35.5079 Y1.4067
G01 X35.5079 Y1.1333
G01 X35.6125 Y0.8808
G01 X35.8270 Y0.6662
G01 X35.9608 Y0.5325
G01 X36.2133 Y0.4279
G01 X38.2667 Y0.4279
G01 X38.3864 Y0.4773
G01 X38.3935 Y0.4796
G01 X38.4065 Y0.4828
G01 X38.4136 Y0.4841
G01 X38.4368 Y0.4859
G01 X38.7041 Y0.4859
G01 X38.8091 Y0.5909
G01 X38.8091 Y0.9308
G01 X38.8098 Y0.9429
G01 X38.8122 Y0.9594
G01 X38.8140 Y0.9668
G01 X38.8171 Y0.9761
G01 X38.8171 Y4.5073
G01 X38.8183 Y4.5262
G01 X38.8203 Y4.5383
G01 X38.8219 Y4.5452
G01 X38.8318 Y4.5723
G01 X38.8375 Y4.5832
G01 X38.8415 Y4.5896
G01 X38.8500 Y4.6001
G01 X38.8566 Y4.6090
G01 X38.8614 Y4.6142
G01 X39.0672 Y4.8200
G01 X39.0733 Y4.8255
G01 X39.0894 Y4.8383
G01 X39.0941 Y4.8415
G01 X39.1038 Y4.8469
G01 X39.1340 Y4.8588
G01 X39.1459 Y4.8617
G01 X39.1550 Y4.8628
G01 X39.1550 Y5.6650
G01 X39.1554 Y5.6724
G01 X39.1567 Y5.6808
G01 X39.1539 Y5.6875
G01 X39.1492 Y5.7021
G01 X39.0793 Y5.9629
G01 X39.0416 Y6.0006
G01 X39.0342 Y6.0090
G01 X39.0256 Y6.0208
G01 X39.0206 Y6.0288
G01 X39.0115 Y6.0469
G01 X39.0089 Y6.0538
G01 X39.0043 Y6.0688
G01 X39.0006 Y6.0916
G01 X39.0000 Y6.1006
G01 X39.0006 Y6.1187
G01 X39.0041 Y6.1399
G01 X39.0064 Y6.1486
G01 X39.0129 Y6.1661
G01 X39.0235 Y6.1857
G01 X39.0288 Y6.1935
G01 X39.0368 Y6.2037
G01 X39.0406 Y6.2079
G01 X39.0561 Y6.2222
G01 X39.0631 Y6.2276
G01 X39.0734 Y6.2344
G01 X39.0796 Y6.2379
G01 X39.1011 Y6.2475
G01 X39.1181 Y6.2522
G01 X39.1291 Y6.2542
G01 X39.1511 Y6.2559
G01 X44.1041 Y6.2559
G01 X44.2091 Y6.3609
G01 X44.2091 Y7.7791
G01 X44.1041 Y7.8841
G01 X38.8759 Y7.8841
G01 X38.7709 Y7.7791
G01 X38.7709 Y6.5433
G01 X38.7687 Y6.5204
G01 X38.7669 Y6.5106
G01 X38.7642 Y6.5023
G01 X38.7538 Y6.4762
G01 X38.7503 Y6.4691
G01 X38.7453 Y6.4614
G01 X38.7243 Y6.4366
G01 X38.7154 Y6.4285
G01 X38.7074 Y6.4229
G01 X38.6834 Y6.4085
G01 X38.6767 Y6.4054
G01 X38.6689 Y6.4026
G01 X38.6395 Y6.3960
G01 X38.6283 Y6.3945
G01 X38.6173 Y6.3947
G01 X38.5891 Y6.3977
G01 X38.5807 Y6.3995
G01 X38.1000 Y6.5283
G01 X37.5346 Y6.3768
G01 X37.1400 Y5.9822
G01 X37.1305 Y5.9734
G01 X37.1164 Y5.9629
G01 X37.1083 Y5.9581
G01 X37.0894 Y5.9488
G01 X37.0728 Y5.9432
G01 X37.0638 Y5.9412
G01 X37.0428 Y5.9382
G01 X37.0250 Y5.9382
G01 X37.0155 Y5.9390
G01 X37.0067 Y5.9409
G01 X36.9981 Y5.9421
G01 X36.9911 Y5.9439
G01 X36.9754 Y5.9494
G01 X36.9669 Y5.9534
G01 X36.9491 Y5.9635
G01 X36.9360 Y5.9734
G01 X36.9292 Y5.9794
G01 X36.9223 Y5.9874
G01 X36.9173 Y5.9923
G01 X36.9116 Y5.9994
G01 X36.9024 Y6.0134
G01 X36.8988 Y6.0202
G01 X36.8959 Y6.0276
G01 X36.8911 Y6.0377
G01 X36.8888 Y6.0445
G01 X36.8846 Y6.0616
G01 X36.8822 Y6.0853
G01 X36.8821 Y8.8334
G01 X36.8827 Y8.8480
G01 X36.8856 Y8.8658
G01 X36.8875 Y8.8729
G01 X36.8902 Y8.8804
G01 X36.8924 Y8.8878
G01 X36.8950 Y8.8945
G01 X36.9024 Y8.9091
G01 X36.9075 Y8.9171
G01 X36.9195 Y8.9329
G01 X36.9326 Y8.9461
G01 X36.9396 Y8.9520
G01 X36.9474 Y8.9570
G01 X36.9566 Y8.9637
G01 X36.9631 Y8.9673
G01 X36.9783 Y8.9742
G01 X36.9976 Y8.9801
G01 X37.0049 Y8.9819
G01 X37.0227 Y8.9842
G01 X37.0321 Y8.9844
G01 X37.0522 Y8.9834
G01 X37.0701 Y8.9800
G01 X37.0791 Y8.9774
G01 X37.0874 Y8.9738
G01 X37.0960 Y8.9708
G01 X37.1027 Y8.9676
G01 X37.1177 Y8.9588
G01 X37.1237 Y8.9542
G01 X37.1291 Y8.9494
G01 X37.1387 Y8.9416
G01 X37.5346 Y8.5457
G01 X38.1000 Y8.3942
G01 X38.6654 Y8.5457
G01 X38.8713 Y8.7516
G01 X38.8844 Y8.7632
G01 X38.8946 Y8.7707
G01 X38.9011 Y8.7747
G01 X38.9134 Y8.7804
G01 X38.9219 Y8.7848
G01 X38.9285 Y8.7876
G01 X38.9463 Y8.7924
G01 X38.9724 Y8.7957
G01 X44.1041 Y8.7959
G01 X44.2091 Y8.9009
G01 X44.2091 Y10.3191
G01 X44.1041 Y10.4241
G01 X38.8383 Y10.4241
G01 X38.8290 Y10.4230
G01 X38.8065 Y10.4218
G01 X38.7994 Y10.4220
G01 X38.7906 Y10.4228
G01 X38.7832 Y10.4242
G01 X38.7586 Y10.4311
G01 X38.7498 Y10.4344
G01 X38.7420 Y10.4381
G01 X38.7373 Y10.4407
G01 X38.7162 Y10.4551
G01 X38.7105 Y10.4596
G01 X38.7039 Y10.4658
G01 X38.6654 Y10.5043
G01 X38.1232 Y10.6495
G01 X38.1162 Y10.6518
G01 X38.0966 Y10.6599
G01 X38.0903 Y10.6633
G01 X38.0769 Y10.6716
G01 X38.0598 Y10.6860
G01 X38.0545 Y10.6911
G01 X38.0458 Y10.7013
G01 X38.0392 Y10.7104
G01 X38.0282 Y10.7292
G01 X38.0253 Y10.7358
G01 X38.0199 Y10.7501
G01 X38.0142 Y10.7765
G01 X38.0131 Y10.7976
G01 X38.0156 Y10.8221
G01 X38.0171 Y10.8292
G01 X38.0199 Y10.8397
G01 X38.0236 Y10.8501
G01 X38.0340 Y10.8717
G01 X38.0455 Y10.8885
G01 X38.0610 Y10.9051
G01 X38.0693 Y10.9125
G01 X38.0790 Y10.9197
G01 X38.0850 Y10.9236
G01 X38.1061 Y10.9345
G01 X38.1251 Y10.9409
G01 X38.6654 Y11.0857
G01 X38.8713 Y11.2916
G01 X38.8844 Y11.3032
G01 X38.8946 Y11.3107
G01 X38.9011 Y11.3147
G01 X38.9134 Y11.3204
G01 X38.9219 Y11.3248
G01 X38.9285 Y11.3276
G01 X38.9463 Y11.3324
G01 X38.9724 Y11.3357
G01 X44.1041 Y11.3359
G01 X44.2091 Y11.4409
G01 X44.2091 Y12.8591
G01 X44.1041 Y12.9641
G01 X38.8383 Y12.9641
G01 X38.8290 Y12.9630
G01 X38.8065 Y12.9618
G01 X38.7994 Y12.9620
G01 X38.7906 Y12.9628
G01 X38.7832 Y12.9642
G01 X38.7586 Y12.9711
G01 X38.7498 Y12.9744
G01 X38.7420 Y12.9781
G01 X38.7373 Y12.9807
G01 X38.7162 Y12.9951
G01 X38.7105 Y12.9996
G01 X38.7039 Y13.0058
G01 X38.6654 Y13.0443
G01 X38.1000 Y13.1958
G01 X37.5346 Y13.0443
G01 X37.1400 Y12.6497
G01 X37.1305 Y12.6409
G01 X37.1179 Y12.6315
G01 X37.1116 Y12.6274
G01 X37.0928 Y12.6178
G01 X37.0842 Y12.6144
G01 X37.0674 Y12.6094
G01 X37.0551 Y12.6077
G01 X37.0482 Y12.6063
G01 X37.0392 Y12.6055
G01 X37.0250 Y12.6057
G01 X37.0155 Y12.6065
G01 X37.0067 Y12.6084
G01 X36.9999 Y12.6093
G01 X36.9928 Y12.6109
G01 X36.9876 Y12.6125
G01 X36.9754 Y12.6169
G01 X36.9685 Y12.6200
G01 X36.9606 Y12.6248
G01 X36.9523 Y12.6290
G01 X36.9445 Y12.6343
G01 X36.9346 Y12.6420
G01 X36.9292 Y12.6469
G01 X36.9223 Y12.6549
G01 X36.9161 Y12.6612
G01 X36.9116 Y12.6669
G01 X36.9005 Y12.6843
G01 X36.8959 Y12.6951
G01 X36.8924 Y12.7019
G01 X36.8893 Y12.7103
G01 X36.8853 Y12.7254
G01 X36.8843 Y12.7309
G01 X36.8821 Y12.7547
G01 X36.8821 Y12.9895
G01 X36.8833 Y13.0068
G01 X36.8856 Y13.0205
G01 X36.8875 Y13.0274
G01 X36.8916 Y13.0381
G01 X36.8946 Y13.0475
G01 X36.8984 Y13.0562
G01 X36.9060 Y13.0694
G01 X36.9213 Y13.0890
G01 X36.9264 Y13.0946
G01 X37.7068 Y13.8751
G01 X37.7190 Y13.8857
G01 X37.7308 Y13.8941
G01 X37.7385 Y13.8984
G01 X37.7472 Y13.9023
G01 X37.7575 Y13.9076
G01 X37.7659 Y13.9107
G01 X37.7785 Y13.9141
G01 X37.8045 Y13.9175
G01 X37.8122 Y13.9179
G01 X38.7745 Y13.9178
G01 X38.7901 Y13.9167
G01 X38.8039 Y13.9144
G01 X38.8124 Y13.9120
G01 X38.8345 Y13.9040
G01 X38.8413 Y13.9007
G01 X38.8535 Y13.8935
G01 X38.8758 Y13.8759
G01 X44.1041 Y13.8759
G01 X44.2091 Y13.9809
G01 X44.2091 Y15.3991
G01 X44.1041 Y15.5041
G01 X38.8759 Y15.5041
G01 X38.7596 Y15.3879
G01 X38.7520 Y15.3703
G01 X38.7493 Y15.3653
G01 X38.7440 Y15.3570
G01 X38.7382 Y15.3498
G01 X38.7313 Y15.3426
G01 X38.7237 Y15.3338
G01 X38.7186 Y15.3288
G01 X38.7106 Y15.3224
G01 X38.7045 Y15.3184
G01 X38.6830 Y15.3062
G01 X38.6764 Y15.3031
G01 X38.6685 Y15.3001
G01 X38.6613 Y15.2980
G01 X38.6341 Y15.2929
G01 X38.6198 Y15.2921
G01 X37.3283 Y15.2921
G01 X37.0758 Y15.1875
G01 X35.8686 Y13.9804
G01 X35.8584 Y13.9712
G01 X35.8448 Y13.9614
G01 X35.8400 Y13.9585
G01 X35.8316 Y13.9546
G01 X35.8254 Y13.9511
G01 X35.8173 Y13.9475
G01 X35.8010 Y13.9422
G01 X35.7920 Y13.9404
G01 X35.7846 Y13.9396
G01 X35.7731 Y13.9378
G01 X35.7550 Y13.9377
G01 X35.7455 Y13.9385
G01 X35.7251 Y13.9424
G01 X35.7179 Y13.9445
G01 X35.7034 Y13.9497
G01 X35.6968 Y13.9530
G01 X35.6791 Y13.9630
G01 X35.6660 Y13.9729
G01 X35.6592 Y13.9789
G01 X35.6521 Y13.9872
G01 X35.6469 Y13.9924
G01 X35.6424 Y13.9978
G01 X35.6330 Y14.0120
G01 X35.6286 Y14.0202
G01 X35.6259 Y14.0271
G01 X35.6212 Y14.0369
G01 X35.6184 Y14.0456
G01 X35.6143 Y14.0629
G01 X35.6123 Y14.0828
G01 X35.6121 Y15.5278
G01 X35.6135 Y15.5486
G01 X35.6156 Y15.5605
G01 X35.6175 Y15.5674
G01 X35.6260 Y15.5911
G01 X35.6332 Y15.6048
G01 X35.6392 Y15.6137
G01 X35.6551 Y15.6334
G01 X36.4368 Y16.4151
G01 X36.4490 Y16.4257
G01 X36.4608 Y16.4341
G01 X36.4685 Y16.4384
G01 X36.4772 Y16.4423
G01 X36.4875 Y16.4476
G01 X36.4959 Y16.4507
G01 X36.5085 Y16.4541
G01 X36.5345 Y16.4575
G01 X36.5422 Y16.4579
G01 X38.7729 Y16.4579
G01 X38.7901 Y16.4567
G01 X38.8039 Y16.4544
G01 X38.8124 Y16.4520
G01 X38.8215 Y16.4484
G01 X38.8327 Y16.4447
G01 X38.8396 Y16.4416
G01 X38.8520 Y16.4345
G01 X38.8758 Y16.4159
G01 X44.1041 Y16.4159
G01 X44.2091 Y16.5209
G01 X44.2091 Y17.9391
G01 X44.1041 Y18.0441
G01 X38.8759 Y18.0441
G01 X38.7596 Y17.9279
G01 X38.7520 Y17.9103
G01 X38.7493 Y17.9053
G01 X38.7440 Y17.8970
G01 X38.7382 Y17.8898
G01 X38.7313 Y17.8826
G01 X38.7237 Y17.8738
G01 X38.7186 Y17.8688
G01 X38.7106 Y17.8624
G01 X38.7045 Y17.8584
G01 X38.6830 Y17.8462
G01 X38.6764 Y17.8431
G01 X38.6685 Y17.8401
G01 X38.6613 Y17.8380
G01 X38.6323 Y17.8327
G01 X38.6198 Y17.8321
G01 X36.0583 Y17.8321
G01 X35.8058 Y17.7275
G01 X34.3425 Y16.2642
G01 X34.2379 Y16.0117
G01 X34.2378 Y9.4810
G01 X34.2373 Y9.4734
G01 X34.2343 Y9.4539
G01 X34.2289 Y9.4361
G01 X34.2263 Y9.4290
G01 X34.2188 Y9.4136
G01 X34.2153 Y9.4074
G01 X34.2042 Y9.3919
G01 X34.1980 Y9.3847
G01 X34.1867 Y9.3737
G01 X34.1796 Y9.3679
G01 X34.1643 Y9.3572
G01 X34.1468 Y9.3484
G01 X34.1383 Y9.3450
G01 X34.1211 Y9.3398
G01 X34.1138 Y9.3383
G01 X34.0973 Y9.3362
G01 X34.0898 Y9.3359
G01 X34.0821 Y9.3364
G01 X34.0761 Y9.3363
G01 X34.0648 Y9.3375
G01 X34.0498 Y9.3404
G01 X34.0445 Y9.3419
G01 X34.0241 Y9.3494
G01 X34.0192 Y9.3518
G01 X34.0066 Y9.3590
G01 X33.9976 Y9.3651
G01 X33.9922 Y9.3698
G01 X33.9866 Y9.3739
G01 X33.9814 Y9.3787
G01 X33.9660 Y9.3962
G01 X33.9530 Y9.4167
G01 X33.7448 Y9.8134
G01 X33.1963 Y10.1920
G01 X32.5346 Y10.2723
G01 X31.9115 Y10.0360
G01 X31.5477 Y9.6254
G01 X31.5308 Y9.6099
G01 X31.5250 Y9.6055
G01 X31.5187 Y9.6014
G01 X31.4897 Y9.5866
G01 X31.4812 Y9.5837
G01 X31.4718 Y9.5815
G01 X31.4468 Y9.5778
G01 X31.4369 Y9.5771
G01 X30.7068 Y9.5771
G01 X30.7006 Y9.5774
G01 X30.6811 Y9.5794
G01 X30.6726 Y9.5810
G01 X30.6657 Y9.5830
G01 X30.6394 Y9.5933
G01 X30.6283 Y9.5990
G01 X30.6196 Y9.6052
G01 X30.5960 Y9.6256
G01 X30.5914 Y9.6308
G01 X30.5866 Y9.6370
G01 X30.5709 Y9.6627
G01 X30.5679 Y9.6689
G01 X30.5578 Y9.6931
G01 X30.2931 Y9.9578
G01 X29.9472 Y10.1011
G01 X29.5728 Y10.1011
G01 X29.2269 Y9.9578
G01 X28.9622 Y9.6931
G01 X28.9515 Y9.6674
G01 X28.9396 Y9.6454
G01 X28.9358 Y9.6400
G01 X28.9314 Y9.6346
G01 X28.9123 Y9.6147
G01 X28.9035 Y9.6070
G01 X28.8954 Y9.6017
G01 X28.8694 Y9.5882
G01 X28.8589 Y9.5842
G01 X28.8494 Y9.5819
G01 X28.8249 Y9.5780
G01 X28.8132 Y9.5771
G01 X28.2855 Y9.5771
G01 X28.2682 Y9.5783
G01 X28.2528 Y9.5810
G01 X28.2460 Y9.5830
G01 X28.2369 Y9.5866
G01 X28.2275 Y9.5896
G01 X28.2205 Y9.5926
G01 X28.2102 Y9.5982
G01 X28.2041 Y9.6021
G01 X28.1943 Y9.6102
G01 X28.1856 Y9.6166
G01 X28.1804 Y9.6214
G01 X22.9792 Y14.8225
G01 X22.7267 Y14.9271
G01 X15.2247 Y14.9271
G01 X15.2053 Y14.9286
G01 X15.1954 Y14.9303
G01 X15.1885 Y14.9319
G01 X15.1634 Y14.9409
G01 X15.1570 Y14.9440
G01 X15.1463 Y14.9500
G01 X15.1405 Y14.9542
G01 X15.1208 Y14.9701
G01 X15.0531 Y15.0378
G01 X14.7072 Y15.1811
G01 X14.3328 Y15.1811
G01 X13.9869 Y15.0378
G01 X13.7774 Y14.8284
G01 X13.7639 Y14.8164
G01 X13.7541 Y14.8093
G01 X13.7476 Y14.8053
G01 X13.7355 Y14.7997
G01 X13.7272 Y14.7953
G01 X13.7205 Y14.7925
G01 X13.7025 Y14.7876
G01 X13.6783 Y14.7845
G01 X13.6706 Y14.7841
G01 X10.0859 Y14.7841
G01 X9.9809 Y14.6791
G01 X9.9809 Y13.2609
G01 X10.0859 Y13.1559
G01 X14.6791 Y13.1559
G01 X14.7882 Y13.2650
G01 X14.7907 Y13.2729
G01 X14.8003 Y13.2972
G01 X14.8037 Y13.3041
G01 X14.8072 Y13.3102
G01 X14.8118 Y13.3165
G01 X14.8300 Y13.3380
G01 X14.8354 Y13.3433
G01 X14.8417 Y13.3484
G01 X14.8670 Y13.3641
G01 X14.8756 Y13.3686
G01 X15.0531 Y13.4422
G01 X15.1210 Y13.5101
G01 X15.1331 Y13.5206
G01 X15.1445 Y13.5288
G01 X15.1510 Y13.5326
G01 X15.1615 Y13.5373
G01 X15.1698 Y13.5417
G01 X15.1799 Y13.5457
G01 X15.1909 Y13.5487
G01 X15.1963 Y13.5497
G01 X15.2187 Y13.5525
G01 X15.2245 Y13.5529
G01 X22.2428 Y13.5529
G01 X22.2618 Y13.5517
G01 X22.2790 Y13.5485
G01 X22.3043 Y13.5397
G01 X22.3112 Y13.5366
G01 X22.3198 Y13.5318
G01 X22.3287 Y13.5258
G01 X22.3357 Y13.5198
G01 X22.3444 Y13.5134
G01 X22.3496 Y13.5086
G01 X27.5508 Y8.3075
G01 X27.8033 Y8.2029
G01 X31.4369 Y8.2029
G01 X31.4436 Y8.2026
G01 X31.4633 Y8.2006
G01 X31.4707 Y8.1991
G01 X31.4781 Y8.1970
G01 X31.5028 Y8.1874
G01 X31.5113 Y8.1833
G01 X31.5165 Y8.1803
G01 X31.5225 Y8.1761
G01 X31.5424 Y8.1595
G01 X31.5476 Y8.1546
G01 X31.9115 Y7.7440
G01 X32.5346 Y7.5077
G01 X33.1963 Y7.5880
G01 X33.7448 Y7.9666
G01 X33.9538 Y8.3647
G01 X33.9599 Y8.3750
G01 X33.9710 Y8.3901
G01 X33.9760 Y8.3956
G01 X33.9886 Y8.4079
G01 X33.9946 Y8.4125
G01 X34.0094 Y8.4228
G01 X34.0305 Y8.4333
G01 X34.0523 Y8.4402
G01 X34.0595 Y8.4416
G01 X34.0666 Y8.4423
G01 X34.0735 Y8.4435
G01 X34.0826 Y8.4441
G01 X34.1004 Y8.4435
G01 X34.1078 Y8.4426
G01 X34.1147 Y8.4410
G01 X34.1218 Y8.4400
G01 X34.1325 Y8.4370
G01 X34.1471 Y8.4316
G01 X34.1537 Y8.4285
G01 X34.1682 Y8.4203
G01 X34.1728 Y8.4173
G01 X34.1896 Y8.4037
G01 X34.1947 Y8.3987
G01 X34.2065 Y8.3852
G01 X34.2175 Y8.3688
G01 X34.2226 Y8.3593
G01 X34.2289 Y8.3444
G01 X34.2313 Y8.3374
G01 X34.2351 Y8.3217
G01 X34.2361 Y8.3164
G01 X34.2379 Y8.2950
G01 X34.2378 Y5.4238
G01 X34.2365 Y5.4064
G01 X34.2344 Y5.3945
G01 X34.2325 Y5.3876
G01 X34.2232 Y5.3622
G01 X34.2159 Y5.3486
G01 X34.2108 Y5.3413
G01 X34.2048 Y5.3343
G01 X34.1984 Y5.3256
G01 X34.1936 Y5.3204
G01 X34.0496 Y5.1764
G01 X34.0345 Y5.1631
G01 X34.0242 Y5.1559
G01 X34.0181 Y5.1524
G01 X34.0078 Y5.1477
G01 X33.9991 Y5.1432
G01 X33.9908 Y5.1398
G01 X33.9801 Y5.1368
G01 X33.9729 Y5.1353
G01 X33.9505 Y5.1325
G01 X33.9428 Y5.1321
G01 X29.9883 Y5.1321
G01 X29.7481 Y5.0326
G01 X29.7346 Y5.0277
G01 X29.7152 Y5.0232
G01 X29.6941 Y5.0212
G01 X29.5728 Y5.0211
G01 X29.2269 Y4.8778
G01 X28.9622 Y4.6131
G01 X28.8189 Y4.2672
G01 X28.8189 Y3.8928
G01 X28.9622 Y3.5469
G01 X29.2269 Y3.2822
G01 X29.5741 Y3.1384
G01 X29.5859 Y3.1375
G01 X29.6014 Y3.1345
G01 X29.6249 Y3.1264
G01 X29.6336 Y3.1226
G01 X29.6475 Y3.1145
G01 X29.6696 Y3.0971
G01 X29.7709 Y2.9959
G01 X33.7291 Y2.9959
G01 X33.8341 Y3.1009
G01 X33.8343 Y3.6128
G01 X33.8368 Y3.6351
G01 X33.8398 Y3.6478
G01 X33.8429 Y3.6568
G01 X33.8530 Y3.6797
G01 X33.8589 Y3.6899
G01 X33.8644 Y3.6974
G01 X33.8813 Y3.7162
G01 X33.8878 Y3.7224
G01 X33.8944 Y3.7276
G01 X33.9005 Y3.7316
G01 X33.9220 Y3.7438
G01 X33.9303 Y3.7476
G01 X33.9383 Y3.7505
G01 X33.9456 Y3.7524
G01 X33.9691 Y3.7568
G01 X33.9764 Y3.7576
G01 X33.9852 Y3.7579
G01 X34.4267 Y3.7579
G01 X34.6792 Y3.8625
G01 X35.2500 Y4.4332
G01 X35.2575 Y4.4403
G01 X35.2630 Y4.4448
G01 X35.2736 Y4.4525
G01 X35.2817 Y4.4573
G01 X35.2994 Y4.4662
G01 X35.3155 Y4.4717
G01 X35.3262 Y4.4743
G01 X35.3354 Y4.4754
G01 X35.3449 Y4.4770
G01 X35.3526 Y4.4774
G01 X35.3650 Y4.4773
G01 X35.3745 Y4.4765
G01 X35.3838 Y4.4744
G01 X35.3931 Y4.4730
G01 X35.4004 Y4.4711
G01 X35.4149 Y4.4660
G01 X35.4216 Y4.4629
G01 X35.4294 Y4.4582
G01 X35.4393 Y4.4530
G01 X35.4440 Y4.4499
G01 X35.4554 Y4.4410
G01 X35.4620 Y4.4348
G01 X35.4765 Y4.4186
G01 X35.4870 Y4.4030
G01 X35.4914 Y4.3948
G01 X35.4995 Y4.3764
G01 X35.5042 Y4.3594
G01 X35.5060 Y4.3502
G01 X35.5079 Y4.3283
G01 X35.5079 Y4.1572
G01 X35.5065 Y4.1364
G01 X35.5047 Y4.1262
G01 X35.5031 Y4.1193
G01 X35.4932 Y4.0922
G01 X35.4877 Y4.0817
G01 X35.4840 Y4.0756
G01 X35.4808 Y4.0713
G01 X35.4748 Y4.0643
G01 X35.4684 Y4.0556
G01 X35.4636 Y4.0504
G01 X33.7321 Y2.3189
G01 X33.7185 Y2.3068
G01 X33.7052 Y2.2975
G01 X33.6990 Y2.2941
G01 X33.6903 Y2.2902
G01 X33.6816 Y2.2857
G01 X33.6750 Y2.2829
G01 X33.6626 Y2.2793
G01 X33.6554 Y2.2778
G01 X33.6330 Y2.2750
G01 X33.6253 Y2.2746
G01 X29.2397 Y2.2746
G01 X29.2207 Y2.2758
G01 X29.2053 Y2.2785
G01 X29.1985 Y2.2805
G01 X29.1894 Y2.2841
G01 X29.1800 Y2.2871
G01 X29.1713 Y2.2909
G01 X29.1627 Y2.2957
G01 X29.1566 Y2.2996
G01 X29.1468 Y2.3077
G01 X29.1381 Y2.3141
G01 X29.1329 Y2.3189
G01 X24.2492 Y7.2025
G01 X23.9967 Y7.3071
G01 X15.2247 Y7.3071
G01 X15.2053 Y7.3086
G01 X15.1954 Y7.3103
G01 X15.1885 Y7.3119
G01 X15.1634 Y7.3209
G01 X15.1570 Y7.3240
G01 X15.1463 Y7.3300
G01 X15.1405 Y7.3342
G01 X15.1208 Y7.3501
G01 X15.0531 Y7.4178
G01 X14.7072 Y7.5611
G01 X14.3328 Y7.5611
G01 X13.9869 Y7.4178
G01 X13.7745 Y7.2056
G01 X13.7624 Y7.1952
G01 X13.7525 Y7.1882
G01 X13.7476 Y7.1853
G01 X13.7239 Y7.1738
G01 X13.7171 Y7.1713
G01 X13.7116 Y7.1699
G00 Z2.0000
G00 X14.3328 Y10.7589
G01 F15.00
G01 Z-0.3500
G01 F80.00
G01 X14.7072 Y10.7589
G01 X15.0531 Y10.9022
G01 X15.3178 Y11.1669
G01 X15.4611 Y11.5128
G01 X15.4611 Y11.8872
G01 X15.3178 Y12.2331
G01 X15.0531 Y12.4978
G01 X14.7072 Y12.6411
G01 X14.3328 Y12.6411
G01 X13.9869 Y12.4978
G01 X13.7222 Y12.2331
G01 X13.5789 Y11.8872
G01 X13.5789 Y11.5128
G01 X13.7222 Y11.1669
G01 X13.9869 Y10.9022
G01 X14.3328 Y10.7589
G00 Z2.0000
G00 X15.3569 Y11.7037
G01 F15.00
G01 Z-0.3500
G01 F80.00
G01 X15.3530 Y11.7820
G01 X15.3409 Y11.8633
G01 X15.3210 Y11.9430
G01 X15.2933 Y12.0203
G01 X15.2582 Y12.0946
G01 X15.2159 Y12.1650
G01 X15.1670 Y12.2310
G01 X15.1118 Y12.2918
G01 X15.0510 Y12.3470
G01 X14.9850 Y12.3959
G01 X14.9146 Y12.4382
G01 X14.8403 Y12.4733
G01 X14.7630 Y12.5010
G01 X14.6833 Y12.5209
G01 X14.6020 Y12.5330
G01 X14.5200 Y12.5370
G01 X14.4380 Y12.5330
G01 X14.3567 Y12.5209
G01 X14.2770 Y12.5010
G01 X14.1997 Y12.4733
G01 X14.1254 Y12.4382
G01 X14.0550 Y12.3959
G01 X13.9890 Y12.3470
G01 X13.9282 Y12.2918
G01 X13.8730 Y12.2310
G01 X13.8241 Y12.1650
G01 X13.7818 Y12.0946
G01 X13.7467 Y12.0203
G01 X13.7190 Y11.9430
G01 X13.6991 Y11.8633
G01 X13.6870 Y11.7820
G01 X13.6830 Y11.7000
G01 X13.6870 Y11.6180
G01 X13.6991 Y11.5367
G01 X13.7190 Y11.4570
G01 X13.7467 Y11.3797
G01 X13.7818 Y11.3054
G01 X13.8241 Y11.2350
G01 X13.8730 Y11.1690
G01 X13.9282 Y11.1082
G01 X13.9890 Y11.0530
G01 X14.0550 Y11.0041
G01 X14.1254 Y10.9618
G01 X14.1997 Y10.9267
G01 X14.2770 Y10.8990
G01 X14.3567 Y10.8791
G01 X14.4380 Y10.8670
G01 X14.5200 Y10.8630
G01 X14.6020 Y10.8670
G01 X14.6833 Y10.8791
G01 X14.7630 Y10.8990
G01 X14.8403 Y10.9267
G01 X14.9146 Y10.9618
G01 X14.9850 Y11.0041
G01 X15.0510 Y11.0530
G01 X15.1118 Y11.1082
G01 X15.1670 Y11.1690
G01 X15.2159 Y11.2350
G01 X15.2582 Y11.3054
G01 X15.2933 Y11.3797
G01 X15.3210 Y11.4570
G01 X15.3409 Y11.5367
G01 X15.3530 Y11.6180
G01 X15.3569 Y11.6963
G01 X15.3569 Y11.7037
G00 Z2.0000
G00 X10.1600 Y13.2600
G01 F15.00
G01 Z-0.3500
G01 F80.00
G01 X14.6105 Y13.2602
G01 X14.6214 Y13.2618
G01 X14.6303 Y13.2644
G01 X14.6404 Y13.2689
G01 X14.6482 Y13.2737
G01 X14.6554 Y13.2794
G01 X14.6630 Y13.2874
G01 X14.6693 Y13.2964
G01 X14.6736 Y13.3046
G01 X14.6756 Y13.3097
G01 X14.6778 Y13.3168
G01 X14.6792 Y13.3240
G01 X14.6799 Y13.3313
G01 X14.6800 Y13.4185
G01 X14.6869 Y13.4199
G01 X14.7594 Y13.4381
G01 X14.7665 Y13.4402
G01 X14.8403 Y13.4667
G01 X14.9146 Y13.5018
G01 X14.9850 Y13.5441
G01 X15.0481 Y13.5907
G01 X15.0538 Y13.5954
G01 X15.1092 Y13.6456
G01 X15.1198 Y13.6567
G01 X22.3484 Y13.6567
G01 X27.5276 Y8.4776
G01 X27.5700 Y8.4391
G01 X27.6160 Y8.4050
G01 X27.6651 Y8.3756
G01 X27.7151 Y8.3519
G01 X27.7707 Y8.3319
G01 X27.8262 Y8.3180
G01 X27.8828 Y8.3096
G01 X27.9400 Y8.3067
G01 X31.5483 Y8.3067
G01 X31.5650 Y8.2746
G01 X31.5811 Y8.2458
G01 X31.5909 Y8.2290
G01 X31.6128 Y8.1936
G01 X31.6305 Y8.1666
G01 X31.6414 Y8.1507
G01 X31.6684 Y8.1134
G01 X31.6991 Y8.0742
G01 X31.7280 Y8.0398
G01 X31.7619 Y8.0025
G01 X31.7914 Y7.9722
G01 X31.8150 Y7.9494
G01 X31.8293 Y7.9361
G01 X31.8639 Y7.9056
G01 X31.9016 Y7.8746
G01 X31.9377 Y7.8471
G01 X31.9783 Y7.8186
G01 X32.0148 Y7.7949
G01 X32.0574 Y7.7691
G01 X32.0879 Y7.7521
G01 X32.1279 Y7.7315
G01 X32.1722 Y7.7105
G01 X32.2165 Y7.6915
G01 X32.2598 Y7.6749
G01 X32.3044 Y7.6595
G01 X32.3500 Y7.6457
G01 X32.3949 Y7.6339
G01 X32.4419 Y7.6233
G01 X32.4867 Y7.6149
G01 X32.5355 Y7.6076
G01 X32.5819 Y7.6024
G01 X32.6013 Y7.6007
G01 X32.6342 Y7.5986
G01 X32.6773 Y7.5970
G01 X32.7266 Y7.5970
G01 X32.7614 Y7.5981
G01 X32.7892 Y7.5997
G01 X32.8222 Y7.6023
G01 X32.8695 Y7.6076
G01 X32.8995 Y7.6119
G01 X32.9273 Y7.6165
G01 X32.9463 Y7.6199
G01 X32.9814 Y7.6272
G01 X33.0101 Y7.6339
G01 X33.0389 Y7.6413
G01 X33.0830 Y7.6540
G01 X33.1146 Y7.6642
G01 X33.1330 Y7.6705
G01 X33.1624 Y7.6813
G01 X33.1885 Y7.6915
G01 X33.2336 Y7.7108
G01 X33.2608 Y7.7235
G01 X33.2884 Y7.7371
G01 X33.3332 Y7.7609
G01 X33.3754 Y7.7857
G01 X33.3989 Y7.8003
G01 X33.4259 Y7.8180
G01 X33.4673 Y7.8471
G01 X33.5041 Y7.8752
G01 X33.5269 Y7.8937
G01 X33.5520 Y7.9149
G01 X33.5900 Y7.9494
G01 X33.6136 Y7.9722
G01 X33.6325 Y7.9913
G01 X33.6655 Y8.0268
G01 X33.6869 Y8.0514
G01 X33.6993 Y8.0661
G01 X33.7179 Y8.0891
G01 X33.7366 Y8.1134
G01 X33.7641 Y8.1515
G01 X33.7821 Y8.1781
G01 X33.7925 Y8.1942
G01 X33.8074 Y8.2179
G01 X33.8239 Y8.2458
G01 X33.8470 Y8.2878
G01 X33.8607 Y8.3146
G01 X33.8744 Y8.3430
G01 X33.8945 Y8.3884
G01 X33.9074 Y8.4202
G01 X33.9173 Y8.4464
G01 X33.9333 Y8.4929
G01 X33.9416 Y8.5197
G01 X33.9509 Y8.5525
G01 X33.9629 Y8.6008
G01 X33.9726 Y8.6462
G01 X33.9805 Y8.6921
G01 X33.9849 Y8.7230
G01 X33.9889 Y8.7567
G01 X33.9917 Y8.7877
G01 X33.9939 Y8.8217
G01 X33.9951 Y8.8502
G01 X33.9957 Y8.8833
G01 X33.9955 Y8.9141
G01 X33.9944 Y8.9482
G01 X33.9928 Y8.9767
G01 X33.9901 Y9.0106
G01 X33.9868 Y9.0416
G01 X33.9825 Y9.0743
G01 X33.9776 Y9.1058
G01 X33.9726 Y9.1338
G01 X33.9653 Y9.1689
G01 X33.9586 Y9.1976
G01 X33.9509 Y9.2275
G01 X33.9416 Y9.2603
G01 X33.9330 Y9.2881
G01 X33.9220 Y9.3205
G01 X33.9109 Y9.3506
G01 X33.9005 Y9.3771
G01 X33.8868 Y9.4095
G01 X33.8740 Y9.4377
G01 X33.8607 Y9.4654
G01 X33.8465 Y9.4931
G01 X33.8310 Y9.5216
G01 X33.8141 Y9.5510
G01 X33.7973 Y9.5783
G01 X33.7745 Y9.6134
G01 X33.7561 Y9.6399
G01 X33.7372 Y9.6658
G01 X33.7179 Y9.6909
G01 X33.6988 Y9.7144
G01 X33.6776 Y9.7395
G01 X33.6564 Y9.7632
G01 X33.6332 Y9.7879
G01 X33.6136 Y9.8078
G01 X33.5892 Y9.8314
G01 X33.5657 Y9.8530
G01 X33.5403 Y9.8751
G01 X33.5041 Y9.9048
G01 X33.4791 Y9.9241
G01 X33.4524 Y9.9436
G01 X33.4267 Y9.9614
G01 X33.3989 Y9.9797
G01 X33.3746 Y9.9949
G01 X33.3467 Y10.0114
G01 X33.3179 Y10.0275
G01 X33.2884 Y10.0429
G01 X33.2608 Y10.0565
G01 X33.2328 Y10.0695
G01 X33.2041 Y10.0820
G01 X33.1717 Y10.0951
G01 X33.1330 Y10.1095
G01 X33.1006 Y10.1205
G01 X33.0728 Y10.1291
G01 X33.0400 Y10.1384
G01 X33.0101 Y10.1461
G01 X32.9814 Y10.1528
G01 X32.9463 Y10.1601
G01 X32.9183 Y10.1651
G01 X32.8868 Y10.1700
G01 X32.8685 Y10.1726
G01 X32.8358 Y10.1764
G01 X32.7882 Y10.1804
G01 X32.7607 Y10.1819
G01 X32.7277 Y10.1830
G01 X32.6784 Y10.1830
G01 X32.6342 Y10.1814
G01 X32.6013 Y10.1793
G01 X32.5819 Y10.1776
G01 X32.5355 Y10.1724
G01 X32.5055 Y10.1681
G01 X32.4777 Y10.1635
G01 X32.4407 Y10.1565
G01 X32.4133 Y10.1504
G01 X32.3830 Y10.1431
G01 X32.3650 Y10.1384
G01 X32.3322 Y10.1291
G01 X32.2894 Y10.1155
G01 X32.2426 Y10.0987
G01 X32.1998 Y10.0816
G01 X32.1548 Y10.0615
G01 X32.1271 Y10.0482
G01 X32.1003 Y10.0345
G01 X32.0574 Y10.0109
G01 X32.0142 Y9.9848
G01 X31.9906 Y9.9696
G01 X31.9640 Y9.9516
G01 X31.9267 Y9.9247
G01 X31.8873 Y9.8939
G01 X31.8523 Y9.8645
G01 X31.8150 Y9.8306
G01 X31.7914 Y9.8078
G01 X31.7725 Y9.7887
G01 X31.7395 Y9.7532
G01 X31.7181 Y9.7286
G01 X31.7062 Y9.7144
G01 X31.6790 Y9.6805
G01 X31.6489 Y9.6399
G01 X31.6223 Y9.6011
G01 X31.6074 Y9.5777
G01 X31.5909 Y9.5510
G01 X31.5811 Y9.5342
G01 X31.5650 Y9.5054
G01 X31.5483 Y9.4733
G01 X30.5359 Y9.4733
G01 X30.5318 Y9.4837
G01 X30.4998 Y9.5513
G01 X30.4964 Y9.5578
G01 X30.4559 Y9.6250
G01 X30.4070 Y9.6910
G01 X30.3544 Y9.7492
G01 X30.3492 Y9.7544
G01 X30.2910 Y9.8070
G01 X30.2250 Y9.8559
G01 X30.1546 Y9.8982
G01 X30.0837 Y9.9318
G01 X30.0769 Y9.9346
G01 X30.0030 Y9.9610
G01 X29.9233 Y9.9809
G01 X29.8457 Y9.9925
G01 X29.8384 Y9.9932
G01 X29.7600 Y9.9970
G01 X29.6780 Y9.9930
G01 X29.6003 Y9.9815
G01 X29.5931 Y9.9801
G01 X29.5170 Y9.9610
G01 X29.4431 Y9.9346
G01 X29.4363 Y9.9318
G01 X29.3654 Y9.8982
G01 X29.2950 Y9.8559
G01 X29.2290 Y9.8070
G01 X29.1708 Y9.7544
G01 X29.1656 Y9.7492
G01 X29.1130 Y9.6910
G01 X29.0641 Y9.6250
G01 X29.0236 Y9.5578
G01 X29.0202 Y9.5513
G01 X28.9882 Y9.4837
G01 X28.9841 Y9.4733
G01 X28.1816 Y9.4733
G01 X23.0011 Y14.6537
G01 X22.9600 Y14.6909
G01 X22.9170 Y14.7228
G01 X22.9109 Y14.7269
G01 X22.8649 Y14.7544
G01 X22.8132 Y14.7789
G01 X22.7628 Y14.7970
G01 X22.7558 Y14.7991
G01 X22.7038 Y14.8120
G01 X22.6472 Y14.8204
G01 X22.5900 Y14.8233
G01 X15.1198 Y14.8233
G01 X15.1092 Y14.8344
G01 X15.0510 Y14.8870
G01 X14.9850 Y14.9359
G01 X14.9146 Y14.9782
G01 X14.8403 Y15.0133
G01 X14.7630 Y15.0410
G01 X14.6833 Y15.0609
G01 X14.6020 Y15.0730
G01 X14.5200 Y15.0770
G01 X14.4416 Y15.0732
G01 X14.4343 Y15.0725
G01 X14.3567 Y15.0609
G01 X14.2806 Y15.0419
G01 X14.2735 Y15.0398
G01 X14.1997 Y15.0133
G01 X14.1238 Y14.9773
G01 X14.0581 Y14.9379
G01 X14.0520 Y14.9338
G01 X13.9890 Y14.8870
G01 X13.9295 Y14.8331
G01 X13.8718 Y14.7695
G01 X13.8251 Y14.7065
G01 X13.8090 Y14.6800
G01 X10.1600 Y14.6800
G01 X10.1508 Y14.6794
G01 X10.1454 Y14.6786
G01 X10.1382 Y14.6768
G01 X10.1313 Y14.6743
G01 X10.1263 Y14.6720
G01 X10.1199 Y14.6684
G01 X10.1153 Y14.6652
G01 X10.1096 Y14.6606
G01 X10.1057 Y14.6567
G01 X10.1009 Y14.6511
G01 X10.0966 Y14.6451
G01 X10.0930 Y14.6387
G01 X10.0907 Y14.6337
G01 X10.0882 Y14.6268
G01 X10.0868 Y14.6214
G01 X10.0856 Y14.6142
G01 X10.0851 Y14.6087
G01 X10.0850 Y13.3350
G01 X10.0854 Y13.3276
G01 X10.0864 Y13.3204
G01 X10.0882 Y13.3132
G01 X10.0907 Y13.3063
G01 X10.0939 Y13.2996
G01 X10.0976 Y13.2933
G01 X10.1020 Y13.2874
G01 X10.1070 Y13.2820
G01 X10.1124 Y13.2770
G01 X10.1183 Y13.2726
G01 X10.1246 Y13.2689
G01 X10.1313 Y13.2657
G01 X10.1382 Y13.2632
G01 X10.1454 Y13.2614
G01 X10.1526 Y13.2604
G01 X10.1600 Y13.2600
G00 Z2.0000
G00 X10.0859 Y15.6959
G01 F15.00
G01 Z-0.3500
G01 F80.00
G01 X14.6791 Y15.6959
G01 X14.7882 Y15.8050
G01 X14.7907 Y15.8129
G01 X14.8003 Y15.8372
G01 X14.8037 Y15.8441
G01 X14.8072 Y15.8502
G01 X14.8118 Y15.8565
G01 X14.8300 Y15.8780
G01 X14.8354 Y15.8833
G01 X14.8417 Y15.8884
G01 X14.8670 Y15.9041
G01 X14.8756 Y15.9086
G01 X15.0531 Y15.9822
G01 X15.1210 Y16.0501
G01 X15.1361 Y16.0629
G01 X15.1445 Y16.0688
G01 X15.1510 Y16.0726
G01 X15.1615 Y16.0773
G01 X15.1731 Y16.0832
G01 X15.1799 Y16.0857
G01 X15.1891 Y16.0882
G01 X15.1981 Y16.0900
G01 X15.2083 Y16.0910
G01 X15.2187 Y16.0925
G01 X15.2264 Y16.0929
G01 X29.0553 Y16.0929
G01 X29.0747 Y16.0914
G01 X29.0846 Y16.0897
G01 X29.0915 Y16.0881
G01 X29.1169 Y16.0790
G01 X29.1237 Y16.0757
G01 X29.1337 Y16.0700
G01 X29.1395 Y16.0658
G01 X29.1592 Y16.0499
G01 X29.2269 Y15.9822
G01 X29.5728 Y15.8389
G01 X29.9472 Y15.8389
G01 X30.2931 Y15.9822
G01 X30.3610 Y16.0501
G01 X30.3731 Y16.0606
G01 X30.3845 Y16.0688
G01 X30.3910 Y16.0726
G01 X30.4015 Y16.0773
G01 X30.4098 Y16.0817
G01 X30.4199 Y16.0857
G01 X30.4345 Y16.0894
G01 X30.4587 Y16.0925
G01 X30.4664 Y16.0929
G01 X32.3910 Y16.0929
G01 X32.4155 Y16.0904
G01 X32.4246 Y16.0886
G01 X32.7025 Y16.0142
G01 X33.2679 Y16.1657
G01 X33.6818 Y16.5796
G01 X33.8333 Y17.1450
G01 X33.6818 Y17.7104
G01 X33.2679 Y18.1243
G01 X32.7025 Y18.2758
G01 X32.1371 Y18.1243
G01 X31.7232 Y17.7104
G01 X31.6877 Y17.5777
G01 X31.6854 Y17.5708
G01 X31.6772 Y17.5506
G01 X31.6693 Y17.5368
G01 X31.6642 Y17.5293
G01 X31.6569 Y17.5211
G01 X31.6500 Y17.5125
G01 X31.6433 Y17.5061
G01 X31.6311 Y17.4962
G01 X31.6120 Y17.4844
G01 X31.6037 Y17.4803
G01 X31.5923 Y17.4756
G01 X31.5833 Y17.4729
G01 X31.5745 Y17.4714
G01 X31.5623 Y17.4685
G01 X31.5438 Y17.4671
G01 X30.4664 Y17.4671
G01 X30.4472 Y17.4683
G01 X30.4302 Y17.4715
G01 X30.4067 Y17.4796
G01 X30.3980 Y17.4834
G01 X30.3894 Y17.4882
G01 X30.3833 Y17.4921
G01 X30.3735 Y17.5002
G01 X30.3661 Y17.5055
G01 X30.3608 Y17.5101
G01 X30.2931 Y17.5778
G01 X29.9472 Y17.7211
G01 X29.5728 Y17.7211
G01 X29.2269 Y17.5778
G01 X29.1590 Y17.5099
G01 X29.1469 Y17.4994
G01 X29.1355 Y17.4912
G01 X29.1290 Y17.4874
G01 X29.1185 Y17.4827
G01 X29.1102 Y17.4783
G01 X29.1001 Y17.4743
G01 X29.0891 Y17.4713
G01 X29.0837 Y17.4703
G01 X29.0613 Y17.4675
G01 X29.0555 Y17.4671
G01 X15.2247 Y17.4671
G01 X15.2053 Y17.4686
G01 X15.1954 Y17.4703
G01 X15.1885 Y17.4719
G01 X15.1634 Y17.4809
G01 X15.1570 Y17.4840
G01 X15.1463 Y17.4900
G01 X15.1405 Y17.4942
G01 X15.1208 Y17.5101
G01 X15.0531 Y17.5778
G01 X14.7072 Y17.7211
G01 X14.3328 Y17.7211
G01 X13.9869 Y17.5778
G01 X13.7774 Y17.3684
G01 X13.7639 Y17.3564
G01 X13.7541 Y17.3493
G01 X13.7476 Y17.3453
G01 X13.7355 Y17.3397
G01 X13.7272 Y17.3353
G01 X13.7205 Y17.3325
G01 X13.7025 Y17.3276
G01 X13.6783 Y17.3245
G01 X13.6706 Y17.3241
G01 X10.0859 Y17.3241
G01 X9.9809 Y17.2191
G01 X9.9809 Y15.8009
G01 X10.0859 Y15.6959
G00 Z2.0000
G00 X10.0850 Y17.1450
G01 F15.00
G01 Z-0.3500
G01 F80.00
G01 X10.0851 Y15.8713
G01 X10.0856 Y15.8658
G01 X10.0868 Y15.8586
G01 X10.0900 Y15.8480
G01 X10.0947 Y15.8380
G01 X10.1009 Y15.8289
G01 X10.1083 Y15.8207
G01 X10.1168 Y15.8137
G01 X10.1230 Y15.8097
G01 X10.1279 Y15.8072
G01 X10.1382 Y15.8032
G01 X10.1490 Y15.8008
G01 X10.1600 Y15.8000
G01 X14.6050 Y15.8000
G01 X14.6160 Y15.8008
G01 X14.6250 Y15.8027
G01 X14.6354 Y15.8064
G01 X14.6451 Y15.8116
G01 X14.6526 Y15.8170
G01 X14.6606 Y15.8246
G01 X14.6674 Y15.8333
G01 X14.6728 Y15.8429
G01 X14.6756 Y15.8497
G01 X14.6778 Y15.8568
G01 X14.6789 Y15.8622
G01 X14.6798 Y15.8695
G01 X14.6800 Y15.9585
G01 X14.6869 Y15.9599
G01 X14.7594 Y15.9781
G01 X14.7665 Y15.9802
G01 X14.8403 Y16.0067
G01 X14.9146 Y16.0418
G01 X14.9850 Y16.0841
G01 X15.0481 Y16.1307
G01 X15.0538 Y16.1354
G01 X15.1092 Y16.1856
G01 X15.1198 Y16.1967
G01 X29.1602 Y16.1967
G01 X29.1708 Y16.1856
G01 X29.2290 Y16.1330
G01 X29.2950 Y16.0841
G01 X29.3654 Y16.0418
G01 X29.4397 Y16.0067
G01 X29.5170 Y15.9790
G01 X29.5967 Y15.9591
G01 X29.6780 Y15.9470
G01 X29.7600 Y15.9430
G01 X29.8420 Y15.9470
G01 X29.9233 Y15.9591
G01 X30.0030 Y15.9790
G01 X30.0803 Y16.0067
G01 X30.1546 Y16.0418
G01 X30.2250 Y16.0841
G01 X30.2910 Y16.1330
G01 X30.3492 Y16.1856
G01 X30.3598 Y16.1967
G01 X32.2948 Y16.1967
G01 X32.3261 Y16.1839
G01 X32.3552 Y16.1729
G01 X32.3860 Y16.1625
G01 X32.4151 Y16.1536
G01 X32.4433 Y16.1459
G01 X32.4737 Y16.1384
G01 X32.5064 Y16.1316
G01 X32.5335 Y16.1267
G01 X32.5641 Y16.1221
G01 X32.5947 Y16.1184
G01 X32.6264 Y16.1156
G01 X32.6562 Y16.1138
G01 X32.6881 Y16.1129
G01 X32.7189 Y16.1129
G01 X32.7496 Y16.1138
G01 X32.7795 Y16.1156
G01 X32.8257 Y16.1202
G01 X32.8555 Y16.1242
G01 X32.8725 Y16.1269
G01 X32.8991 Y16.1317
G01 X32.9326 Y16.1387
G01 X32.9732 Y16.1489
G01 X32.9946 Y16.1550
G01 X33.0197 Y16.1628
G01 X33.0603 Y16.1767
G01 X33.0808 Y16.1846
G01 X33.1051 Y16.1945
G01 X33.1348 Y16.2076
G01 X33.1490 Y16.2143
G01 X33.1740 Y16.2267
G01 X33.1913 Y16.2358
G01 X33.2307 Y16.2581
G01 X33.2563 Y16.2739
G01 X33.2806 Y16.2899
G01 X33.3045 Y16.3065
G01 X33.3190 Y16.3171
G01 X33.3556 Y16.3457
G01 X33.3778 Y16.3643
G01 X33.3916 Y16.3765
G01 X33.4232 Y16.4060
G01 X33.4449 Y16.4278
G01 X33.4578 Y16.4414
G01 X33.4867 Y16.4737
G01 X33.5081 Y16.4997
G01 X33.5239 Y16.5199
G01 X33.5354 Y16.5353
G01 X33.5530 Y16.5601
G01 X33.5770 Y16.5966
G01 X33.5872 Y16.6131
G01 X33.6013 Y16.6374
G01 X33.6226 Y16.6772
G01 X33.6305 Y16.6929
G01 X33.6432 Y16.7200
G01 X33.6607 Y16.7612
G01 X33.6682 Y16.7803
G01 X33.6778 Y16.8072
G01 X33.6864 Y16.8329
G01 X33.6962 Y16.8656
G01 X33.7076 Y16.9103
G01 X33.7169 Y16.9543
G01 X33.7222 Y16.9844
G01 X33.7264 Y17.0142
G01 X33.7312 Y17.0592
G01 X33.7325 Y17.0768
G01 X33.7340 Y17.1064
G01 X33.7348 Y17.1517
G01 X33.7345 Y17.1692
G01 X33.7333 Y17.1998
G01 X33.7312 Y17.2308
G01 X33.7283 Y17.2603
G01 X33.7220 Y17.3067
G01 X33.7169 Y17.3357
G01 X33.7135 Y17.3530
G01 X33.7043 Y17.3938
G01 X33.6966 Y17.4230
G01 X33.6904 Y17.4443
G01 X33.6821 Y17.4701
G01 X33.6731 Y17.4963
G01 X33.6677 Y17.5110
G01 X33.6551 Y17.5426
G01 X33.6363 Y17.5850
G01 X33.6160 Y17.6256
G01 X33.6018 Y17.6518
G01 X33.5872 Y17.6769
G01 X33.5770 Y17.6934
G01 X33.5612 Y17.7178
G01 X33.5347 Y17.7557
G01 X33.5157 Y17.7807
G01 X33.4997 Y17.8007
G01 X33.4858 Y17.8173
G01 X33.4674 Y17.8381
G01 X33.4458 Y17.8613
G01 X33.4347 Y17.8726
G01 X33.4128 Y17.8940
G01 X33.3916 Y17.9135
G01 X33.3778 Y17.9257
G01 X33.3564 Y17.9437
G01 X33.3200 Y17.9721
G01 X33.3045 Y17.9835
G01 X33.2806 Y18.0001
G01 X33.2563 Y18.0161
G01 X33.2307 Y18.0319
G01 X33.1902 Y18.0548
G01 X33.1740 Y18.0633
G01 X33.1481 Y18.0761
G01 X33.1194 Y18.0893
G01 X33.0940 Y18.1001
G01 X33.0794 Y18.1060
G01 X33.0463 Y18.1183
G01 X33.0205 Y18.1270
G01 X32.9946 Y18.1350
G01 X32.9732 Y18.1411
G01 X32.9470 Y18.1478
G01 X32.9326 Y18.1513
G01 X32.8991 Y18.1583
G01 X32.8714 Y18.1633
G01 X32.8423 Y18.1677
G01 X32.8246 Y18.1700
G01 X32.7951 Y18.1731
G01 X32.7485 Y18.1762
G01 X32.7189 Y18.1771
G01 X32.7014 Y18.1772
G01 X32.6562 Y18.1762
G01 X32.6102 Y18.1731
G01 X32.5653 Y18.1680
G01 X32.5218 Y18.1613
G01 X32.4868 Y18.1545
G01 X32.4424 Y18.1439
G01 X32.4000 Y18.1319
G01 X32.3563 Y18.1174
G01 X32.3136 Y18.1011
G01 X32.2719 Y18.0831
G01 X32.2309 Y18.0632
G01 X32.2005 Y18.0469
G01 X32.1635 Y18.0253
G01 X32.1380 Y18.0092
G01 X32.1229 Y17.9992
G01 X32.0873 Y17.9739
G01 X32.0588 Y17.9519
G01 X32.0388 Y17.9355
G01 X32.0176 Y17.9173
G01 X31.9896 Y17.8915
G01 X31.9583 Y17.8603
G01 X31.9297 Y17.8292
G01 X31.9066 Y17.8022
G01 X31.8906 Y17.7824
G01 X31.8778 Y17.7658
G01 X31.8536 Y17.7323
G01 X31.8422 Y17.7154
G01 X31.8265 Y17.6909
G01 X31.8041 Y17.6533
G01 X31.7953 Y17.6374
G01 X31.7815 Y17.6110
G01 X31.7616 Y17.5693
G01 X31.7511 Y17.5453
G01 X31.7433 Y17.5264
G01 X31.7281 Y17.4857
G01 X31.7144 Y17.4435
G01 X31.7044 Y17.4084
G01 X31.6936 Y17.3633
G01 X30.3598 Y17.3633
G01 X30.3492 Y17.3744
G01 X30.2910 Y17.4270
G01 X30.2250 Y17.4759
G01 X30.1546 Y17.5182
G01 X30.0803 Y17.5533
G01 X30.0030 Y17.5810
G01 X29.9233 Y17.6009
G01 X29.8420 Y17.6130
G01 X29.7600 Y17.6170
G01 X29.6780 Y17.6130
G01 X29.5967 Y17.6009
G01 X29.5170 Y17.5810
G01 X29.4397 Y17.5533
G01 X29.3654 Y17.5182
G01 X29.2950 Y17.4759
G01 X29.2290 Y17.4270
G01 X29.1708 Y17.3744
G01 X29.1602 Y17.3633
G01 X15.1198 Y17.3633
G01 X15.1092 Y17.3744
G01 X15.0510 Y17.4270
G01 X14.9850 Y17.4759
G01 X14.9146 Y17.5182
G01 X14.8403 Y17.5533
G01 X14.7630 Y17.5810
G01 X14.6833 Y17.6009
G01 X14.6020 Y17.6130
G01 X14.5200 Y17.6170
G01 X14.4416 Y17.6132
G01 X14.4343 Y17.6125
G01 X14.3567 Y17.6009
G01 X14.2806 Y17.5819
G01 X14.2735 Y17.5798
G01 X14.1997 Y17.5533
G01 X14.1238 Y17.5173
G01 X14.0550 Y17.4759
G01 X13.9919 Y17.4293
G01 X13.9862 Y17.4246
G01 X13.9295 Y17.3731
G01 X13.8718 Y17.3095
G01 X13.8251 Y17.2465
G01 X13.8090 Y17.2200
G01 X10.1582 Y17.2200
G01 X10.1526 Y17.2196
G01 X10.1454 Y17.2186
G01 X10.1382 Y17.2168
G01 X10.1313 Y17.2143
G01 X10.1246 Y17.2111
G01 X10.1183 Y17.2074
G01 X10.1124 Y17.2030
G01 X10.1070 Y17.1980
G01 X10.1020 Y17.1926
G01 X10.0976 Y17.1867
G01 X10.0939 Y17.1804
G01 X10.0907 Y17.1737
G01 X10.0882 Y17.1668
G01 X10.0864 Y17.1596
G01 X10.0854 Y17.1524
G01 X10.0850 Y17.1450
G00 Z2.0000
G00 X14.3328 Y23.4589
G01 F15.00
G01 Z-0.3500
G01 F80.00
G01 X14.7072 Y23.4589
G01 X15.0531 Y23.6022
G01 X15.3178 Y23.8669
G01 X15.4611 Y24.2128
G01 X15.4611 Y24.5872
G01 X15.3178 Y24.9331
G01 X15.0531 Y25.1978
G01 X14.7072 Y25.3411
G01 X14.3328 Y25.3411
G01 X13.9869 Y25.1978
G01 X13.7222 Y24.9331
G01 X13.5789 Y24.5872
G01 X13.5789 Y24.2128
G01 X13.7222 Y23.8669
G01 X13.9869 Y23.6022
G01 X14.3328 Y23.4589
G00 Z2.0000
G00 X15.3569 Y24.4037
G01 F15.00
G01 Z-0.3500
G01 F80.00
G01 X15.3530 Y24.4820
G01 X15.3409 Y24.5633
G01 X15.3210 Y24.6430
G01 X15.2933 Y24.7203
G01 X15.2582 Y24.7946
G01 X15.2159 Y24.8650
G01 X15.1670 Y24.9310
G01 X15.1118 Y24.9918
G01 X15.0510 Y25.0470
G01 X14.9850 Y25.0959
G01 X14.9146 Y25.1382
G01 X14.8403 Y25.1733
G01 X14.7630 Y25.2010
G01 X14.6833 Y25.2209
G01 X14.6020 Y25.2330
G01 X14.5200 Y25.2370
G01 X14.4380 Y25.2330
G01 X14.3567 Y25.2209
G01 X14.2770 Y25.2010
G01 X14.1997 Y25.1733
G01 X14.1254 Y25.1382
G01 X14.0550 Y25.0959
G01 X13.9890 Y25.0470
G01 X13.9282 Y24.9918
G01 X13.8730 Y24.9310
G01 X13.8241 Y24.8650
G01 X13.7818 Y24.7946
G01 X13.7467 Y24.7203
G01 X13.7190 Y24.6430
G01 X13.6991 Y24.5633
G01 X13.6870 Y24.4820
G01 X13.6830 Y24.4000
G01 X13.6870 Y24.3180
G01 X13.6991 Y24.2367
G01 X13.7190 Y24.1570
G01 X13.7467 Y24.0797
G01 X13.7818 Y24.0054
G01 X13.8241 Y23.9350
G01 X13.8730 Y23.8690
G01 X13.9282 Y23.8082
G01 X13.9890 Y23.7530
G01 X14.0550 Y23.7041
G01 X14.1254 Y23.6618
G01 X14.1997 Y23.6267
G01 X14.2770 Y23.5990
G01 X14.3567 Y23.5791
G01 X14.4380 Y23.5670
G01 X14.5200 Y23.5630
G01 X14.6020 Y23.5670
G01 X14.6833 Y23.5791
G01 X14.7630 Y23.5990
G01 X14.8403 Y23.6267
G01 X14.9146 Y23.6618
G01 X14.9850 Y23.7041
G01 X15.0510 Y23.7530
G01 X15.1118 Y23.8082
G01 X15.1670 Y23.8690
G01 X15.2159 Y23.9350
G01 X15.2582 Y24.0054
G01 X15.2933 Y24.0797
G01 X15.3210 Y24.1570
G01 X15.3409 Y24.2367
G01 X15.3530 Y24.3180
G01 X15.3569 Y24.3963
G01 X15.3569 Y24.4037
G00 Z2.0000
G00 X14.3328 Y28.5389
G01 F15.00
G01 Z-0.3500
G01 F80.00
G01 X14.7072 Y28.5389
G01 X15.0531 Y28.6822
G01 X15.3178 Y28.9469
G01 X15.4611 Y29.2928
G01 X15.4611 Y29.6672
G01 X15.3178 Y30.0131
G01 X15.0531 Y30.2778
G01 X14.7072 Y30.4211
G01 X14.3328 Y30.4211
G01 X13.9869 Y30.2778
G01 X13.7222 Y30.0131
G01 X13.5789 Y29.6672
G01 X13.5789 Y29.2928
G01 X13.7222 Y28.9469
G01 X13.9869 Y28.6822
G01 X14.3328 Y28.5389
G00 Z2.0000
G00 X15.3569 Y29.4837
G01 F15.00
G01 Z-0.3500
G01 F80.00
G01 X15.3530 Y29.5620
G01 X15.3409 Y29.6433
G01 X15.3210 Y29.7230
G01 X15.2933 Y29.8003
G01 X15.2582 Y29.8746
G01 X15.2159 Y29.9450
G01 X15.1670 Y30.0110
G01 X15.1118 Y30.0718
G01 X15.0510 Y30.1270
G01 X14.9850 Y30.1759
G01 X14.9146 Y30.2182
G01 X14.8403 Y30.2533
G01 X14.7630 Y30.2810
G01 X14.6833 Y30.3009
G01 X14.6020 Y30.3130
G01 X14.5200 Y30.3170
G01 X14.4380 Y30.3130
G01 X14.3567 Y30.3009
G01 X14.2770 Y30.2810
G01 X14.1997 Y30.2533
G01 X14.1254 Y30.2182
G01 X14.0550 Y30.1759
G01 X13.9890 Y30.1270
G01 X13.9282 Y30.0718
G01 X13.8730 Y30.0110
G01 X13.8241 Y29.9450
G01 X13.7818 Y29.8746
G01 X13.7467 Y29.8003
G01 X13.7190 Y29.7230
G01 X13.6991 Y29.6433
G01 X13.6870 Y29.5620
G01 X13.6830 Y29.4800
G01 X13.6870 Y29.3980
G01 X13.6991 Y29.3167
G01 X13.7190 Y29.2370
G01 X13.7467 Y29.1597
G01 X13.7818 Y29.0854
G01 X13.8241 Y29.0150
G01 X13.8730 Y28.9490
G01 X13.9282 Y28.8882
G01 X13.9890 Y28.8330
G01 X14.0550 Y28.7841
G01 X14.1254 Y28.7418
G01 X14.1997 Y28.7067
G01 X14.2770 Y28.6790
G01 X14.3567 Y28.6591
G01 X14.4380 Y28.6470
G01 X14.5200 Y28.6430
G01 X14.6020 Y28.6470
G01 X14.6833 Y28.6591
G01 X14.7630 Y28.6790
G01 X14.8403 Y28.7067
G01 X14.9146 Y28.7418
G01 X14.9850 Y28.7841
G01 X15.0510 Y28.8330
G01 X15.1118 Y28.8882
G01 X15.1670 Y28.9490
G01 X15.2159 Y29.0150
G01 X15.2582 Y29.0854
G01 X15.2933 Y29.1597
G01 X15.3210 Y29.2370
G01 X15.3409 Y29.3167
G01 X15.3530 Y29.3980
G01 X15.3569 Y29.4763
G01 X15.3569 Y29.4837
G00 Z2.0000
G00 X14.3328 Y33.6189
G01 F15.00
G01 Z-0.3500
G01 F80.00
G01 X14.7072 Y33.6189
G01 X15.0531 Y33.7622
G01 X15.3178 Y34.0269
G01 X15.4611 Y34.3728
G01 X15.4611 Y34.7472
G01 X15.3178 Y35.0931
G01 X15.0531 Y35.3578
G01 X14.7072 Y35.5011
G01 X14.3328 Y35.5011
G01 X13.9869 Y35.3578
G01 X13.7222 Y35.0931
G01 X13.5789 Y34.7472
G01 X13.5789 Y34.3728
G01 X13.7222 Y34.0269
G01 X13.9869 Y33.7622
G01 X14.3328 Y33.6189
G00 Z2.0000
G00 X15.3569 Y34.5637
G01 F15.00
G01 Z-0.3500
G01 F80.00
G01 X15.3530 Y34.6420
G01 X15.3409 Y34.7233
G01 X15.3210 Y34.8030
G01 X15.2933 Y34.8803
G01 X15.2582 Y34.9546
G01 X15.2159 Y35.0250
G01 X15.1670 Y35.0910
G01 X15.1118 Y35.1518
G01 X15.0510 Y35.2070
G01 X14.9850 Y35.2559
G01 X14.9146 Y35.2982
G01 X14.8403 Y35.3333
G01 X14.7630 Y35.3610
G01 X14.6833 Y35.3809
G01 X14.6020 Y35.3930
G01 X14.5200 Y35.3970
G01 X14.4380 Y35.3930
G01 X14.3567 Y35.3809
G01 X14.2770 Y35.3610
G01 X14.1997 Y35.3333
G01 X14.1254 Y35.2982
G01 X14.0550 Y35.2559
G01 X13.9890 Y35.2070
G01 X13.9282 Y35.1518
G01 X13.8730 Y35.0910
G01 X13.8241 Y35.0250
G01 X13.7818 Y34.9546
G01 X13.7467 Y34.8803
G01 X13.7190 Y34.8030
G01 X13.6991 Y34.7233
G01 X13.6870 Y34.6420
G01 X13.6830 Y34.5600
G01 X13.6870 Y34.4780
G01 X13.6991 Y34.3967
G01 X13.7190 Y34.3170
G01 X13.7467 Y34.2397
G01 X13.7818 Y34.1654
G01 X13.8241 Y34.0950
G01 X13.8730 Y34.0290
G01 X13.9282 Y33.9682
G01 X13.9890 Y33.9130
G01 X14.0550 Y33.8641
G01 X14.1254 Y33.8218
G01 X14.1997 Y33.7867
G01 X14.2770 Y33.7590
G01 X14.3567 Y33.7391
G01 X14.4380 Y33.7270
G01 X14.5200 Y33.7230
G01 X14.6020 Y33.7270
G01 X14.6833 Y33.7391
G01 X14.7630 Y33.7590
G01 X14.8403 Y33.7867
G01 X14.9146 Y33.8218
G01 X14.9850 Y33.8641
G01 X15.0510 Y33.9130
G01 X15.1118 Y33.9682
G01 X15.1670 Y34.0290
G01 X15.2159 Y34.0950
G01 X15.2582 Y34.1654
G01 X15.2933 Y34.2397
G01 X15.3210 Y34.3170
G01 X15.3409 Y34.3967
G01 X15.3530 Y34.4780
G01 X15.3569 Y34.5563
G01 X15.3569 Y34.5637
G00 Z2.0000
G00 X14.3328 Y36.1589
G01 F15.00
G01 Z-0.3500
G01 F80.00
G01 X14.7072 Y36.1589
G01 X15.0531 Y36.3022
G01 X15.3178 Y36.5669
G01 X15.4611 Y36.9128
G01 X15.4611 Y37.2872
G01 X15.3178 Y37.6331
G01 X15.0531 Y37.8978
G01 X14.7072 Y38.0411
G01 X14.3328 Y38.0411
G01 X13.9869 Y37.8978
G01 X13.7222 Y37.6331
G01 X13.5789 Y37.2872
G01 X13.5789 Y36.9128
G01 X13.7222 Y36.5669
G01 X13.9869 Y36.3022
G01 X14.3328 Y36.1589
G00 Z2.0000
G00 X15.3569 Y37.1037
G01 F15.00
G01 Z-0.3500
G01 F80.00
G01 X15.3530 Y37.1820
G01 X15.3409 Y37.2633
G01 X15.3210 Y37.3430
G01 X15.2933 Y37.4203
G01 X15.2582 Y37.4946
G01 X15.2159 Y37.5650
G01 X15.1670 Y37.6310
G01 X15.1118 Y37.6918
G01 X15.0510 Y37.7470
G01 X14.9850 Y37.7959
G01 X14.9146 Y37.8382
G01 X14.8403 Y37.8733
G01 X14.7630 Y37.9010
G01 X14.6833 Y37.9209
G01 X14.6020 Y37.9330
G01 X14.5200 Y37.9370
G01 X14.4380 Y37.9330
G01 X14.3567 Y37.9209
G01 X14.2770 Y37.9010
G01 X14.1997 Y37.8733
G01 X14.1254 Y37.8382
G01 X14.0550 Y37.7959
G01 X13.9890 Y37.7470
G01 X13.9282 Y37.6918
G01 X13.8730 Y37.6310
G01 X13.8241 Y37.5650
G01 X13.7818 Y37.4946
G01 X13.7467 Y37.4203
G01 X13.7190 Y37.3430
G01 X13.6991 Y37.2633
G01 X13.6870 Y37.1820
G01 X13.6830 Y37.1000
G01 X13.6870 Y37.0180
G01 X13.6991 Y36.9367
G01 X13.7190 Y36.8570
G01 X13.7467 Y36.7797
G01 X13.7818 Y36.7054
G01 X13.8241 Y36.6350
G01 X13.8730 Y36.5690
G01 X13.9282 Y36.5082
G01 X13.9890 Y36.4530
G01 X14.0550 Y36.4041
G01 X14.1254 Y36.3618
G01 X14.1997 Y36.3267
G01 X14.2770 Y36.2990
G01 X14.3567 Y36.2791
G01 X14.4380 Y36.2670
G01 X14.5200 Y36.2630
G01 X14.6020 Y36.2670
G01 X14.6833 Y36.2791
G01 X14.7630 Y36.2990
G01 X14.8403 Y36.3267
G01 X14.9146 Y36.3618
G01 X14.9850 Y36.4041
G01 X15.0510 Y36.4530
G01 X15.1118 Y36.5082
G01 X15.1670 Y36.5690
G01 X15.2159 Y36.6350
G01 X15.2582 Y36.7054
G01 X15.2933 Y36.7797
G01 X15.3210 Y36.8570
G01 X15.3409 Y36.9367
G01 X15.3530 Y37.0180
G01 X15.3569 Y37.0963
G01 X15.3569 Y37.1037
G00 Z2.0000
G00 X15.3569 Y39.6437
G01 F15.00
G01 Z-0.3500
G01 F80.00
G01 X15.3530 Y39.7220
G01 X15.3409 Y39.8033
G01 X15.3210 Y39.8830
G01 X15.2933 Y39.9603
G01 X15.2582 Y40.0346
G01 X15.2159 Y40.1050
G01 X15.1670 Y40.1710
G01 X15.1118 Y40.2318
G01 X15.0510 Y40.2870
G01 X14.9850 Y40.3359
G01 X14.9146 Y40.3782
G01 X14.8403 Y40.4133
G01 X14.7630 Y40.4410
G01 X14.6833 Y40.4609
G01 X14.6020 Y40.4730
G01 X14.5200 Y40.4770
G01 X14.4380 Y40.4730
G01 X14.3567 Y40.4609
G01 X14.2770 Y40.4410
G01 X14.1997 Y40.4133
G01 X14.1254 Y40.3782
G01 X14.0550 Y40.3359
G01 X13.9890 Y40.2870
G01 X13.9282 Y40.2318
G01 X13.8730 Y40.1710
G01 X13.8241 Y40.1050
G01 X13.7818 Y40.0346
G01 X13.7467 Y39.9603
G01 X13.7190 Y39.8830
G01 X13.6991 Y39.8033
G01 X13.6870 Y39.7220
G01 X13.6830 Y39.6400
G01 X13.6870 Y39.5580
G01 X13.6991 Y39.4767
G01 X13.7190 Y39.3970
G01 X13.7467 Y39.3197
G01 X13.7818 Y39.2454
G01 X13.8241 Y39.1750
G01 X13.8730 Y39.1090
G01 X13.9282 Y39.0482
G01 X13.9890 Y38.9930
G01 X14.0550 Y38.9441
G01 X14.1254 Y38.9018
G01 X14.1997 Y38.8667
G01 X14.2770 Y38.8390
G01 X14.3567 Y38.8191
G01 X14.4380 Y38.8070
G01 X14.5200 Y38.8030
G01 X14.6020 Y38.8070
G01 X14.6833 Y38.8191
G01 X14.7630 Y38.8390
G01 X14.8403 Y38.8667
G01 X14.9146 Y38.9018
G01 X14.9850 Y38.9441
G01 X15.0510 Y38.9930
G01 X15.1118 Y39.0482
G01 X15.1670 Y39.1090
G01 X15.2159 Y39.1750
G01 X15.2582 Y39.2454
G01 X15.2933 Y39.3197
G01 X15.3210 Y39.3970
G01 X15.3409 Y39.4767
G01 X15.3530 Y39.5580
G01 X15.3569 Y39.6363
G01 X15.3569 Y39.6437
G00 Z2.0000
G00 X10.0859 Y30.9359
G01 F15.00
G01 Z-0.3500
G01 F80.00
G01 X15.3141 Y30.9359
G01 X15.4191 Y31.0409
G01 X15.4191 Y32.4591
G01 X15.3141 Y32.5641
G01 X15.1552 Y32.5641
G01 X15.1682 Y32.5495
G01 X15.2138 Y32.4880
G01 X15.2179 Y32.4819
G01 X15.2310 Y32.4600
G01 X15.2455 Y32.4598
G01 X15.2564 Y32.4582
G01 X15.2635 Y32.4562
G01 X15.2687 Y32.4543
G01 X15.2786 Y32.4493
G01 X15.2847 Y32.4452
G01 X15.2890 Y32.4418
G01 X15.2968 Y32.4340
G01 X15.3002 Y32.4297
G01 X15.3043 Y32.4236
G01 X15.3093 Y32.4137
G01 X15.3112 Y32.4085
G01 X15.3132 Y32.4014
G01 X15.3142 Y32.3960
G01 X15.3149 Y32.3887
G01 X15.3150 Y32.2799
G01 X15.3215 Y32.2612
G01 X15.3405 Y32.1851
G01 X15.3531 Y32.1002
G01 X15.3570 Y32.0200
G01 X15.3528 Y31.9361
G01 X15.3405 Y31.8549
G01 X15.3215 Y31.7788
G01 X15.3150 Y31.7601
G01 X15.3150 Y31.1150
G01 X15.3146 Y31.1076
G01 X15.3128 Y31.0968
G01 X15.3093 Y31.0863
G01 X15.3043 Y31.0764
G01 X15.2980 Y31.0674
G01 X15.2904 Y31.0594
G01 X15.2817 Y31.0526
G01 X15.2721 Y31.0472
G01 X15.2653 Y31.0444
G01 X15.2600 Y31.0427
G01 X15.2492 Y31.0406
G01 X15.2400 Y31.0400
G01 X10.1582 Y31.0400
G01 X10.1508 Y31.0406
G01 X10.1436 Y31.0418
G01 X10.1365 Y31.0438
G01 X10.1296 Y31.0464
G01 X10.1246 Y31.0489
G01 X10.1183 Y31.0526
G01 X10.1124 Y31.0570
G01 X10.1070 Y31.0620
G01 X10.1020 Y31.0674
G01 X10.0976 Y31.0733
G01 X10.0939 Y31.0796
G01 X10.0907 Y31.0863
G01 X10.0882 Y31.0932
G01 X10.0864 Y31.1004
G01 X10.0856 Y31.1058
G01 X10.0850 Y31.1132
G01 X10.0850 Y32.3868
G01 X10.0861 Y32.3978
G01 X10.0888 Y32.4085
G01 X10.0930 Y32.4187
G01 X10.0987 Y32.4282
G01 X10.1057 Y32.4367
G01 X10.1139 Y32.4441
G01 X10.1214 Y32.4493
G01 X10.1313 Y32.4543
G01 X10.1382 Y32.4568
G01 X10.1454 Y32.4586
G01 X10.1526 Y32.4596
G01 X10.1600 Y32.4600
G01 X13.8090 Y32.4600
G01 X13.8221 Y32.4819
G01 X13.8262 Y32.4880
G01 X13.8718 Y32.5495
G01 X13.8848 Y32.5641
G01 X10.0859 Y32.5641
G01 X9.9809 Y32.4591
G01 X9.9809 Y31.0409
G01 X10.0859 Y30.9359
G00 Z2.0000
G00 X6.0724 Y25.3438
G01 F15.00
G01 Z-0.3500
G01 F80.00
G01 X6.0654 Y25.3322
G01 X6.0516 Y25.3156
G01 X5.9725 Y25.2363
G01 X5.9725 Y22.9037
G01 X6.0775 Y22.7987
G01 X7.2925 Y22.7987
G01 X7.3975 Y22.9037
G01 X7.3975 Y24.7007
G01 X7.3987 Y24.7197
G01 X7.4010 Y24.7334
G01 X7.4034 Y24.7419
G01 X7.4122 Y24.7657
G01 X7.4186 Y24.7777
G01 X7.4225 Y24.7838
G01 X7.4306 Y24.7936
G01 X7.4370 Y24.8023
G01 X7.4418 Y24.8075
G01 X8.8443 Y26.2101
G01 X8.8565 Y26.2207
G01 X8.8683 Y26.2291
G01 X8.8760 Y26.2334
G01 X8.8847 Y26.2373
G01 X8.8967 Y26.2433
G01 X8.9051 Y26.2462
G01 X8.9178 Y26.2494
G01 X8.9420 Y26.2525
G01 X8.9478 Y26.2529
G01 X13.8170 Y26.2528
G01 X13.8347 Y26.2514
G01 X13.8446 Y26.2497
G01 X13.8515 Y26.2481
G01 X13.8766 Y26.2391
G01 X13.8830 Y26.2360
G01 X13.8937 Y26.2300
G01 X13.8995 Y26.2258
G01 X13.9192 Y26.2099
G01 X13.9869 Y26.1422
G01 X14.3328 Y25.9989
G01 X14.7072 Y25.9989
G01 X15.0531 Y26.1422
G01 X15.1210 Y26.2101
G01 X15.1331 Y26.2206
G01 X15.1445 Y26.2288
G01 X15.1510 Y26.2326
G01 X15.1615 Y26.2373
G01 X15.1698 Y26.2417
G01 X15.1799 Y26.2457
G01 X15.1909 Y26.2487
G01 X15.1963 Y26.2497
G01 X15.2187 Y26.2525
G01 X15.2245 Y26.2529
G01 X26.5553 Y26.2529
G01 X26.5743 Y26.2517
G01 X26.5863 Y26.2497
G01 X26.5932 Y26.2481
G01 X26.6056 Y26.2434
G01 X26.6150 Y26.2404
G01 X26.6220 Y26.2374
G01 X26.6323 Y26.2318
G01 X26.6384 Y26.2279
G01 X26.6482 Y26.2198
G01 X26.6569 Y26.2134
G01 X26.6621 Y26.2086
G01 X28.9114 Y23.9594
G01 X28.9216 Y23.9481
G01 X28.9305 Y23.9360
G01 X28.9346 Y23.9296
G01 X28.9435 Y23.9120
G01 X28.9622 Y23.8669
G01 X29.2269 Y23.6022
G01 X29.5741 Y23.4584
G01 X29.5859 Y23.4575
G01 X29.6014 Y23.4545
G01 X29.6249 Y23.4464
G01 X29.6336 Y23.4426
G01 X29.6475 Y23.4345
G01 X29.6696 Y23.4171
G01 X29.7709 Y23.3159
G01 X33.7291 Y23.3159
G01 X33.8341 Y23.4209
G01 X33.8341 Y24.8391
G01 X33.7291 Y24.9441
G01 X30.6094 Y24.9441
G01 X30.5920 Y24.9451
G01 X30.5784 Y24.9473
G01 X30.5715 Y24.9489
G01 X30.5448 Y24.9586
G01 X30.5339 Y24.9643
G01 X30.5278 Y24.9680
G01 X30.5235 Y24.9712
G01 X30.5165 Y24.9772
G01 X30.5078 Y24.9836
G01 X30.5026 Y24.9884
G01 X30.2931 Y25.1978
G01 X29.9472 Y25.3411
G01 X29.5630 Y25.3411
G01 X29.5534 Y25.3401
G01 X29.5257 Y25.3397
G01 X29.5168 Y25.3404
G01 X29.5085 Y25.3420
G01 X29.4766 Y25.3521
G01 X29.4697 Y25.3552
G01 X29.4611 Y25.3602
G01 X29.4383 Y25.3767
G01 X29.4309 Y25.3833
G01 X27.2917 Y27.5225
G01 X27.0392 Y27.6271
G01 X15.2247 Y27.6271
G01 X15.2053 Y27.6286
G01 X15.1954 Y27.6303
G01 X15.1885 Y27.6319
G01 X15.1634 Y27.6409
G01 X15.1570 Y27.6440
G01 X15.1463 Y27.6500
G01 X15.1405 Y27.6542
G01 X15.1208 Y27.6701
G01 X15.0531 Y27.7378
G01 X14.7072 Y27.8811
G01 X14.3328 Y27.8811
G01 X13.9869 Y27.7378
G01 X13.9190 Y27.6699
G01 X13.9069 Y27.6594
G01 X13.8955 Y27.6512
G01 X13.8890 Y27.6474
G01 X13.8785 Y27.6427
G01 X13.8702 Y27.6383
G01 X13.8601 Y27.6343
G01 X13.8491 Y27.6313
G01 X13.8437 Y27.6303
G01 X13.8175 Y27.6272
G01 X8.4658 Y27.6271
G01 X8.2133 Y27.5225
G01 X6.1025 Y25.4117
G01 X6.0814 Y25.3606
G01 X6.0766 Y25.3507
G01 X6.0724 Y25.3438
G00 Z2.0000
G00 X6.1428 Y25.2367
G01 F15.00
G01 Z-0.3500
G01 F80.00
G01 X6.1370 Y25.2358
G01 X6.1298 Y25.2340
G01 X6.1229 Y25.2315
G01 X6.1179 Y25.2292
G01 X6.1115 Y25.2256
G01 X6.1069 Y25.2224
G01 X6.1012 Y25.2178
G01 X6.0960 Y25.2126
G01 X6.0914 Y25.2069
G01 X6.0873 Y25.2008
G01 X6.0846 Y25.1959
G01 X6.0816 Y25.1892
G01 X6.0798 Y25.1840
G01 X6.0780 Y25.1768
G01 X6.0770 Y25.1696
G01 X6.0766 Y25.1640
G01 X6.0766 Y22.9778
G01 X6.0770 Y22.9704
G01 X6.0784 Y22.9614
G01 X6.0810 Y22.9525
G01 X6.0838 Y22.9457
G01 X6.0882 Y22.9377
G01 X6.0948 Y22.9288
G01 X6.1012 Y22.9222
G01 X6.1099 Y22.9154
G01 X6.1179 Y22.9108
G01 X6.1281 Y22.9066
G01 X6.1370 Y22.9042
G01 X6.1479 Y22.9029
G01 X7.2221 Y22.9029
G01 X7.2294 Y22.9036
G01 X7.2366 Y22.9050
G01 X7.2437 Y22.9072
G01 X7.2488 Y22.9092
G01 X7.2554 Y22.9125
G01 X7.2616 Y22.9165
G01 X7.2660 Y22.9198
G01 X7.2714 Y22.9248
G01 X7.2764 Y22.9302
G01 X7.2808 Y22.9361
G01 X7.2837 Y22.9408
G01 X7.2870 Y22.9474
G01 X7.2896 Y22.9543
G01 X7.2912 Y22.9596
G01 X7.2926 Y22.9668
G01 X7.2933 Y22.9741
G01 X7.2934 Y24.8061
G01 X8.8441 Y26.3567
G01 X13.9202 Y26.3567
G01 X13.9308 Y26.3456
G01 X13.9890 Y26.2930
G01 X14.0550 Y26.2441
G01 X14.1254 Y26.2018
G01 X14.1997 Y26.1667
G01 X14.2770 Y26.1390
G01 X14.3567 Y26.1191
G01 X14.4380 Y26.1070
G01 X14.5200 Y26.1030
G01 X14.6020 Y26.1070
G01 X14.6833 Y26.1191
G01 X14.7630 Y26.1390
G01 X14.8403 Y26.1667
G01 X14.9146 Y26.2018
G01 X14.9850 Y26.2441
G01 X15.0510 Y26.2930
G01 X15.1092 Y26.3456
G01 X15.1198 Y26.3567
G01 X26.6609 Y26.3567
G01 X29.0301 Y23.9876
G01 X29.0354 Y23.9826
G01 X29.0641 Y23.9350
G01 X29.1118 Y23.8705
G01 X29.1656 Y23.8108
G01 X29.1708 Y23.8056
G01 X29.2290 Y23.7530
G01 X29.2950 Y23.7041
G01 X29.3654 Y23.6618
G01 X29.4397 Y23.6267
G01 X29.5170 Y23.5990
G01 X29.5967 Y23.5791
G01 X29.6780 Y23.5670
G01 X29.7563 Y23.5631
G01 X29.7700 Y23.5634
G01 X29.7701 Y23.4913
G01 X29.7714 Y23.4804
G01 X29.7738 Y23.4715
G01 X29.7772 Y23.4629
G01 X29.7807 Y23.4564
G01 X29.7848 Y23.4503
G01 X29.7907 Y23.4433
G01 X29.7960 Y23.4382
G01 X29.8033 Y23.4326
G01 X29.8096 Y23.4289
G01 X29.8163 Y23.4257
G01 X29.8232 Y23.4232
G01 X29.8304 Y23.4214
G01 X29.8376 Y23.4204
G01 X29.8450 Y23.4200
G01 X33.6568 Y23.4200
G01 X33.6642 Y23.4206
G01 X33.6696 Y23.4214
G01 X33.6768 Y23.4232
G01 X33.6837 Y23.4257
G01 X33.6904 Y23.4289
G01 X33.6967 Y23.4326
G01 X33.7026 Y23.4370
G01 X33.7067 Y23.4407
G01 X33.7118 Y23.4460
G01 X33.7163 Y23.4518
G01 X33.7193 Y23.4564
G01 X33.7228 Y23.4629
G01 X33.7256 Y23.4697
G01 X33.7278 Y23.4768
G01 X33.7289 Y23.4822
G01 X33.7298 Y23.4895
G01 X33.7300 Y24.7668
G01 X33.7292 Y24.7760
G01 X33.7273 Y24.7850
G01 X33.7243 Y24.7937
G01 X33.7203 Y24.8020
G01 X33.7152 Y24.8097
G01 X33.7080 Y24.8180
G01 X33.7011 Y24.8241
G01 X33.6936 Y24.8293
G01 X33.6854 Y24.8336
G01 X33.6750 Y24.8373
G01 X33.6642 Y24.8394
G01 X33.6550 Y24.8400
G01 X30.4710 Y24.8400
G01 X30.4549 Y24.8665
G01 X30.4058 Y24.9324
G01 X30.3518 Y24.9918
G01 X30.2895 Y25.0482
G01 X30.2250 Y25.0959
G01 X30.1546 Y25.1382
G01 X30.0803 Y25.1733
G01 X30.0065 Y25.1998
G01 X29.9994 Y25.2019
G01 X29.9269 Y25.2201
G01 X29.9197 Y25.2215
G01 X29.8420 Y25.2330
G01 X29.7582 Y25.2370
G01 X29.6780 Y25.2330
G01 X29.5985 Y25.2213
G01 X29.5188 Y25.2015
G01 X29.4797 Y25.1877
G01 X27.3123 Y27.3550
G01 X27.2725 Y27.3909
G01 X27.2265 Y27.4250
G01 X27.1774 Y27.4544
G01 X27.1291 Y27.4774
G01 X27.1223 Y27.4802
G01 X27.0753 Y27.4970
G01 X27.0683 Y27.4991
G01 X27.0163 Y27.5120
G01 X26.9578 Y27.5206
G01 X26.9025 Y27.5233
G01 X15.1198 Y27.5233
G01 X15.1092 Y27.5344
G01 X15.0510 Y27.5870
G01 X14.9850 Y27.6359
G01 X14.9146 Y27.6782
G01 X14.8403 Y27.7133
G01 X14.7630 Y27.7410
G01 X14.6833 Y27.7609
G01 X14.6020 Y27.7730
G01 X14.5200 Y27.7770
G01 X14.4380 Y27.7730
G01 X14.3567 Y27.7609
G01 X14.2770 Y27.7410
G01 X14.1997 Y27.7133
G01 X14.1254 Y27.6782
G01 X14.0550 Y27.6359
G01 X13.9890 Y27.5870
G01 X13.9308 Y27.5344
G01 X13.9202 Y27.5233
G01 X8.6025 Y27.5233
G01 X8.5453 Y27.5204
G01 X8.4887 Y27.5120
G01 X8.4367 Y27.4991
G01 X8.4297 Y27.4970
G01 X8.3827 Y27.4802
G01 X8.3759 Y27.4774
G01 X8.3276 Y27.4544
G01 X8.2785 Y27.4250
G01 X8.2325 Y27.3909
G01 X8.1914 Y27.3537
G01 X6.2713 Y25.4336
G01 X6.2341 Y25.3925
G01 X6.2000 Y25.3465
G01 X6.1706 Y25.2974
G01 X6.1469 Y25.2474
G01 X6.1428 Y25.2367
G00 Z2.0000
G00 X3.5617 Y22.9218
G01 F15.00
G01 Z-0.3500
G01 F80.00
G01 X3.5618 Y22.5232
G01 X3.5646 Y22.4678
G01 X3.5726 Y22.4130
G01 X3.5869 Y22.3557
G01 X3.6048 Y22.3052
G01 X3.6076 Y22.2984
G01 X3.6306 Y22.2501
G01 X3.6581 Y22.2041
G01 X3.6622 Y22.1980
G01 X3.6930 Y22.1564
G01 X3.7326 Y22.1126
G01 X4.6676 Y21.1776
G01 X4.7086 Y21.1403
G01 X4.7530 Y21.1072
G01 X4.7591 Y21.1031
G01 X4.8051 Y21.0756
G01 X4.8568 Y21.0511
G01 X4.9107 Y21.0319
G01 X4.9626 Y21.0188
G01 X4.9698 Y21.0173
G01 X5.0247 Y21.0094
G01 X5.0800 Y21.0067
G01 X29.4900 Y21.0067
G01 X29.5435 Y21.0093
G01 X29.5508 Y21.0100
G01 X29.6038 Y21.0180
G01 X29.6541 Y21.0305
G01 X29.6761 Y21.0272
G01 X29.6816 Y21.0268
G01 X29.7563 Y21.0231
G01 X29.7700 Y21.0234
G01 X29.7702 Y20.9495
G01 X29.7711 Y20.9422
G01 X29.7727 Y20.9350
G01 X29.7757 Y20.9263
G01 X29.7789 Y20.9196
G01 X29.7848 Y20.9103
G01 X29.7907 Y20.9033
G01 X29.7974 Y20.8970
G01 X29.8064 Y20.8907
G01 X29.8146 Y20.8864
G01 X29.8250 Y20.8827
G01 X29.8358 Y20.8806
G01 X29.8450 Y20.8800
G01 X33.6568 Y20.8800
G01 X33.6642 Y20.8806
G01 X33.6696 Y20.8814
G01 X33.6768 Y20.8832
G01 X33.6837 Y20.8857
G01 X33.6904 Y20.8889
G01 X33.6967 Y20.8926
G01 X33.7026 Y20.8970
G01 X33.7067 Y20.9007
G01 X33.7118 Y20.9060
G01 X33.7163 Y20.9118
G01 X33.7193 Y20.9164
G01 X33.7228 Y20.9229
G01 X33.7256 Y20.9297
G01 X33.7278 Y20.9368
G01 X33.7289 Y20.9422
G01 X33.7298 Y20.9495
G01 X33.7300 Y22.2268
G01 X33.7292 Y22.2360
G01 X33.7268 Y22.2468
G01 X33.7228 Y22.2571
G01 X33.7174 Y22.2667
G01 X33.7118 Y22.2740
G01 X33.7040 Y22.2818
G01 X33.6951 Y22.2884
G01 X33.6854 Y22.2936
G01 X33.6768 Y22.2968
G01 X33.6696 Y22.2986
G01 X33.6624 Y22.2996
G01 X33.6550 Y22.3000
G01 X30.4710 Y22.3000
G01 X30.4549 Y22.3265
G01 X30.4082 Y22.3895
G01 X30.3505 Y22.4531
G01 X30.2938 Y22.5046
G01 X30.2881 Y22.5093
G01 X30.2250 Y22.5559
G01 X30.1562 Y22.5973
G01 X30.0803 Y22.6333
G01 X30.0065 Y22.6598
G01 X29.9994 Y22.6619
G01 X29.9233 Y22.6809
G01 X29.8457 Y22.6925
G01 X29.8384 Y22.6932
G01 X29.7637 Y22.6969
G01 X29.7563 Y22.6969
G01 X29.6816 Y22.6932
G01 X29.6743 Y22.6925
G01 X29.5967 Y22.6809
G01 X29.5170 Y22.6610
G01 X29.4397 Y22.6333
G01 X29.3687 Y22.5998
G01 X29.3622 Y22.5964
G01 X29.2950 Y22.5559
G01 X29.2319 Y22.5093
G01 X29.2262 Y22.5046
G01 X29.1682 Y22.4518
G01 X29.1130 Y22.3910
G01 X29.0641 Y22.3250
G01 X29.0236 Y22.2578
G01 X29.0202 Y22.2513
G01 X28.9882 Y22.1837
G01 X28.9841 Y22.1733
G01 X15.2959 Y22.1733
G01 X15.2918 Y22.1837
G01 X15.2598 Y22.2513
G01 X15.2564 Y22.2578
G01 X15.2159 Y22.3250
G01 X15.1670 Y22.3910
G01 X15.1118 Y22.4518
G01 X15.0538 Y22.5046
G01 X15.0481 Y22.5093
G01 X14.9850 Y22.5559
G01 X14.9178 Y22.5964
G01 X14.9113 Y22.5998
G01 X14.8403 Y22.6333
G01 X14.7630 Y22.6610
G01 X14.6833 Y22.6809
G01 X14.6057 Y22.6925
G01 X14.5984 Y22.6932
G01 X14.5200 Y22.6970
G01 X14.4416 Y22.6932
G01 X14.4343 Y22.6925
G01 X14.3567 Y22.6809
G01 X14.2770 Y22.6610
G01 X14.2031 Y22.6346
G01 X14.1963 Y22.6318
G01 X14.1254 Y22.5982
G01 X14.0550 Y22.5559
G01 X13.9890 Y22.5070
G01 X13.9308 Y22.4544
G01 X13.9256 Y22.4492
G01 X13.8730 Y22.3910
G01 X13.8241 Y22.3250
G01 X13.7836 Y22.2578
G01 X13.7802 Y22.2513
G01 X13.7482 Y22.1837
G01 X13.7441 Y22.1733
G01 X5.3216 Y22.1733
G01 X4.7283 Y22.7666
G01 X4.7283 Y22.9218
G01 X4.7340 Y22.9274
G01 X4.7386 Y22.9331
G01 X4.7427 Y22.9392
G01 X4.7470 Y22.9474
G01 X4.7496 Y22.9543
G01 X4.7520 Y22.9632
G01 X4.7530 Y22.9704
G01 X4.7534 Y22.9778
G01 X4.7534 Y25.1640
G01 X4.7528 Y25.1714
G01 X4.7516 Y25.1786
G01 X4.7502 Y25.1840
G01 X4.7477 Y25.1909
G01 X4.7445 Y25.1976
G01 X4.7408 Y25.2039
G01 X4.7375 Y25.2083
G01 X4.7327 Y25.2139
G01 X4.7274 Y25.2190
G01 X4.7216 Y25.2235
G01 X4.7170 Y25.2265
G01 X4.7105 Y25.2300
G01 X4.7037 Y25.2328
G01 X4.6966 Y25.2350
G01 X4.6912 Y25.2361
G01 X4.6839 Y25.2370
G01 X3.6079 Y25.2371
G01 X3.5988 Y25.2361
G01 X3.5881 Y25.2334
G01 X3.5795 Y25.2300
G01 X3.5699 Y25.2246
G01 X3.5612 Y25.2178
G01 X3.5548 Y25.2112
G01 X3.5482 Y25.2023
G01 X3.5438 Y25.1943
G01 X3.5410 Y25.1875
G01 X3.5384 Y25.1786
G01 X3.5370 Y25.1696
G01 X3.5366 Y25.1622
G01 X3.5366 Y22.9778
G01 X3.5372 Y22.9686
G01 X3.5384 Y22.9614
G01 X3.5404 Y22.9543
G01 X3.5430 Y22.9474
G01 X3.5473 Y22.9392
G01 X3.5514 Y22.9331
G01 X3.5560 Y22.9274
G01 X3.5617 Y22.9218
G00 Z2.0000
G00 X3.4325 Y22.8995
G01 F15.00
G01 Z-0.3500
G01 F80.00
G01 X3.4385 Y22.8894
G01 X3.4424 Y22.8804
G01 X3.4476 Y22.8703
G01 X3.4507 Y22.8619
G01 X3.4537 Y22.8511
G01 X3.4547 Y22.8457
G01 X3.4578 Y22.8195
G01 X3.4579 Y22.3883
G01 X3.5625 Y22.1358
G01 X4.6908 Y21.0075
G01 X4.9433 Y20.9029
G01 X29.5812 Y20.9029
G01 X29.6019 Y20.9015
G01 X29.6122 Y20.8997
G01 X29.6191 Y20.8981
G01 X29.6445 Y20.8890
G01 X29.6513 Y20.8857
G01 X29.6620 Y20.8795
G01 X29.6816 Y20.8645
G01 X29.6869 Y20.8599
G01 X29.7709 Y20.7759
G01 X33.7291 Y20.7759
G01 X33.8341 Y20.8809
G01 X33.8341 Y22.2991
G01 X33.7291 Y22.4041
G01 X30.6094 Y22.4041
G01 X30.5920 Y22.4051
G01 X30.5784 Y22.4073
G01 X30.5715 Y22.4089
G01 X30.5444 Y22.4188
G01 X30.5339 Y22.4243
G01 X30.5278 Y22.4280
G01 X30.5235 Y22.4312
G01 X30.5165 Y22.4372
G01 X30.5078 Y22.4436
G01 X30.5026 Y22.4484
G01 X30.2931 Y22.6578
G01 X29.9472 Y22.8011
G01 X29.5728 Y22.8011
G01 X29.2269 Y22.6578
G01 X28.9622 Y22.3931
G01 X28.9515 Y22.3674
G01 X28.9414 Y22.3486
G01 X28.9386 Y22.3439
G01 X28.9314 Y22.3346
G01 X28.9099 Y22.3123
G01 X28.9020 Y22.3059
G01 X28.8954 Y22.3017
G01 X28.8711 Y22.2890
G01 X28.8642 Y22.2860
G01 X28.8571 Y22.2836
G01 X28.8494 Y22.2819
G01 X28.8230 Y22.2777
G01 X28.8152 Y22.2771
G01 X15.4647 Y22.2771
G01 X15.4431 Y22.2792
G01 X15.4326 Y22.2810
G01 X15.4240 Y22.2836
G01 X15.3994 Y22.2933
G01 X15.3914 Y22.2973
G01 X15.3838 Y22.3020
G01 X15.3587 Y22.3230
G01 X15.3526 Y22.3293
G01 X15.3477 Y22.3354
G01 X15.3318 Y22.3612
G01 X15.3279 Y22.3689
G01 X15.3178 Y22.3931
G01 X15.0531 Y22.6578
G01 X14.7072 Y22.8011
G01 X14.3328 Y22.8011
G01 X13.9869 Y22.6578
G01 X13.7222 Y22.3931
G01 X13.7115 Y22.3674
G01 X13.7014 Y22.3486
G01 X13.6986 Y22.3439
G01 X13.6914 Y22.3346
G01 X13.6699 Y22.3123
G01 X13.6620 Y22.3059
G01 X13.6554 Y22.3017
G01 X13.6311 Y22.2890
G01 X13.6242 Y22.2860
G01 X13.6171 Y22.2836
G01 X13.6094 Y22.2819
G01 X13.5830 Y22.2777
G01 X13.5771 Y22.2772
G01 X5.4272 Y22.2771
G01 X5.4118 Y22.2780
G01 X5.4046 Y22.2788
G01 X5.3944 Y22.2807
G01 X5.3874 Y22.2825
G01 X5.3770 Y22.2866
G01 X5.3662 Y22.2901
G01 X5.3597 Y22.2929
G01 X5.3502 Y22.2982
G01 X5.3441 Y22.3021
G01 X5.3343 Y22.3102
G01 X5.3256 Y22.3166
G01 X5.3204 Y22.3214
G01 X4.9003 Y22.7414
G01 X4.8885 Y22.7551
G01 X4.8823 Y22.7639
G01 X4.8786 Y22.7699
G01 X4.8665 Y22.7954
G01 X4.8642 Y22.8022
G01 X4.8613 Y22.8131
G01 X4.8579 Y22.8391
G01 X4.8575 Y22.8468
G01 X4.8575 Y25.2363
G01 X4.7525 Y25.3413
G01 X3.5375 Y25.3413
G01 X3.4325 Y25.2363
G01 X3.4325 Y22.8995
G00 Z2.0000
G00 X1.0217 Y22.9218
G01 F15.00
G01 Z-0.3500
G01 F80.00
G01 X1.0218 Y18.3957
G01 X1.0246 Y18.3403
G01 X1.0323 Y18.2873
G01 X1.0338 Y18.2801
G01 X1.0469 Y18.2282
G01 X1.0661 Y18.1743
G01 X1.0890 Y18.1258
G01 X1.0924 Y18.1194
G01 X1.1200 Y18.0735
G01 X1.1541 Y18.0275
G01 X1.1926 Y17.9851
G01 X10.0651 Y9.1126
G01 X10.1075 Y9.0741
G01 X10.1505 Y9.0422
G01 X10.1566 Y9.0381
G01 X10.2026 Y9.0106
G01 X10.2509 Y8.9876
G01 X10.2577 Y8.9848
G01 X10.3082 Y8.9669
G01 X10.3601 Y8.9538
G01 X10.3673 Y8.9523
G01 X10.4203 Y8.9446
G01 X10.4757 Y8.9418
G01 X13.7128 Y8.9417
G01 X13.7196 Y8.9153
G01 X13.7474 Y8.8380
G01 X13.7818 Y8.7654
G01 X13.8231 Y8.6965
G01 X13.8730 Y8.6290
G01 X13.9256 Y8.5708
G01 X13.9308 Y8.5656
G01 X13.9905 Y8.5118
G01 X14.0550 Y8.4641
G01 X14.1254 Y8.4218
G01 X14.1997 Y8.3867
G01 X14.2735 Y8.3602
G01 X14.2806 Y8.3581
G01 X14.3531 Y8.3399
G01 X14.3603 Y8.3385
G01 X14.4380 Y8.3270
G01 X14.5200 Y8.3230
G01 X14.6020 Y8.3270
G01 X14.6797 Y8.3385
G01 X14.6869 Y8.3399
G01 X14.7594 Y8.3581
G01 X14.7665 Y8.3602
G01 X14.8403 Y8.3867
G01 X14.9146 Y8.4218
G01 X14.9850 Y8.4641
G01 X15.0495 Y8.5118
G01 X15.1092 Y8.5656
G01 X15.1144 Y8.5708
G01 X15.1670 Y8.6290
G01 X15.2169 Y8.6965
G01 X15.2582 Y8.7654
G01 X15.2926 Y8.8380
G01 X15.3204 Y8.9153
G01 X15.3272 Y8.9417
G01 X24.5234 Y8.9417
G01 X27.2576 Y6.2076
G01 X27.3000 Y6.1691
G01 X27.3475 Y6.1340
G01 X27.3919 Y6.1074
G01 X27.3983 Y6.1040
G01 X27.4468 Y6.0811
G01 X27.4972 Y6.0630
G01 X27.5042 Y6.0609
G01 X27.5562 Y6.0480
G01 X27.6092 Y6.0400
G01 X27.6165 Y6.0393
G01 X27.6700 Y6.0367
G01 X29.1602 Y6.0367
G01 X29.1708 Y6.0256
G01 X29.2290 Y5.9730
G01 X29.2950 Y5.9241
G01 X29.3654 Y5.8818
G01 X29.4397 Y5.8467
G01 X29.5170 Y5.8190
G01 X29.5967 Y5.7991
G01 X29.6780 Y5.7870
G01 X29.7563 Y5.7831
G01 X29.7700 Y5.7834
G01 X29.7702 Y5.7095
G01 X29.7708 Y5.7040
G01 X29.7722 Y5.6968
G01 X29.7744 Y5.6897
G01 X29.7772 Y5.6829
G01 X29.7826 Y5.6733
G01 X29.7882 Y5.6660
G01 X29.7946 Y5.6594
G01 X29.8018 Y5.6537
G01 X29.8096 Y5.6489
G01 X29.8197 Y5.6444
G01 X29.8286 Y5.6418
G01 X29.8376 Y5.6404
G01 X29.8450 Y5.6400
G01 X33.6550 Y5.6400
G01 X33.6624 Y5.6404
G01 X33.6678 Y5.6411
G01 X33.6732 Y5.6422
G01 X33.6803 Y5.6444
G01 X33.6904 Y5.6489
G01 X33.6997 Y5.6548
G01 X33.7054 Y5.6594
G01 X33.7093 Y5.6633
G01 X33.7163 Y5.6718
G01 X33.7220 Y5.6813
G01 X33.7262 Y5.6915
G01 X33.7289 Y5.7022
G01 X33.7300 Y5.7132
G01 X33.7300 Y6.9850
G01 X33.7296 Y6.9924
G01 X33.7289 Y6.9978
G01 X33.7278 Y7.0032
G01 X33.7256 Y7.0103
G01 X33.7211 Y7.0204
G01 X33.7152 Y7.0297
G01 X33.7080 Y7.0380
G01 X33.6997 Y7.0452
G01 X33.6951 Y7.0484
G01 X33.6887 Y7.0520
G01 X33.6785 Y7.0562
G01 X33.6678 Y7.0589
G01 X33.6568 Y7.0600
G01 X30.4710 Y7.0600
G01 X30.4549 Y7.0865
G01 X30.4082 Y7.1495
G01 X30.3505 Y7.2131
G01 X30.2910 Y7.2670
G01 X30.2280 Y7.3138
G01 X30.2219 Y7.3179
G01 X30.1562 Y7.3573
G01 X30.0803 Y7.3933
G01 X30.0065 Y7.4198
G01 X29.9994 Y7.4219
G01 X29.9233 Y7.4409
G01 X29.8457 Y7.4525
G01 X29.8384 Y7.4532
G01 X29.7618 Y7.4570
G01 X29.6780 Y7.4530
G01 X29.5967 Y7.4409
G01 X29.5170 Y7.4210
G01 X29.4397 Y7.3933
G01 X29.3654 Y7.3582
G01 X29.2950 Y7.3159
G01 X29.2290 Y7.2670
G01 X29.1708 Y7.2144
G01 X29.1602 Y7.2033
G01 X27.9116 Y7.2033
G01 X25.1761 Y9.9387
G01 X25.1350 Y9.9759
G01 X25.0920 Y10.0078
G01 X25.0859 Y10.0119
G01 X25.0431 Y10.0376
G01 X25.0367 Y10.0410
G01 X24.9882 Y10.0639
G01 X24.9343 Y10.0831
G01 X24.8788 Y10.0970
G01 X24.8240 Y10.1052
G01 X24.7650 Y10.1083
G01 X10.7191 Y10.1083
G01 X2.1883 Y18.6391
G01 X2.1883 Y19.1867
G01 X13.6945 Y19.1867
G01 X13.6995 Y19.1549
G01 X13.7196 Y19.0753
G01 X13.7467 Y18.9997
G01 X13.7827 Y18.9238
G01 X13.8241 Y18.8550
G01 X13.8730 Y18.7890
G01 X13.9282 Y18.7282
G01 X13.9876 Y18.6742
G01 X14.0550 Y18.6241
G01 X14.1222 Y18.5836
G01 X14.1287 Y18.5802
G01 X14.1963 Y18.5482
G01 X14.2031 Y18.5454
G01 X14.2770 Y18.5190
G01 X14.3567 Y18.4991
G01 X14.4380 Y18.4870
G01 X14.5200 Y18.4830
G01 X14.6020 Y18.4870
G01 X14.6833 Y18.4991
G01 X14.7630 Y18.5190
G01 X14.8369 Y18.5454
G01 X14.8437 Y18.5482
G01 X14.9113 Y18.5802
G01 X14.9178 Y18.5836
G01 X14.9850 Y18.6241
G01 X15.0524 Y18.6742
G01 X15.1118 Y18.7282
G01 X15.1670 Y18.7890
G01 X15.2159 Y18.8550
G01 X15.2573 Y18.9238
G01 X15.2933 Y18.9997
G01 X15.3204 Y19.0753
G01 X15.3405 Y19.1549
G01 X15.3455 Y19.1867
G01 X28.9345 Y19.1867
G01 X28.9395 Y19.1549
G01 X28.9596 Y19.0753
G01 X28.9867 Y18.9997
G01 X29.0227 Y18.9238
G01 X29.0641 Y18.8550
G01 X29.1130 Y18.7890
G01 X29.1682 Y18.7282
G01 X29.2276 Y18.6742
G01 X29.2950 Y18.6241
G01 X29.3622 Y18.5836
G01 X29.3687 Y18.5802
G01 X29.4363 Y18.5482
G01 X29.4431 Y18.5454
G01 X29.5170 Y18.5190
G01 X29.5967 Y18.4991
G01 X29.6780 Y18.4870
G01 X29.7600 Y18.4830
G01 X29.8420 Y18.4870
G01 X29.9233 Y18.4991
G01 X30.0030 Y18.5190
G01 X30.0769 Y18.5454
G01 X30.0837 Y18.5482
G01 X30.1513 Y18.5802
G01 X30.1578 Y18.5836
G01 X30.2250 Y18.6241
G01 X30.2924 Y18.6742
G01 X30.3518 Y18.7282
G01 X30.4070 Y18.7890
G01 X30.4559 Y18.8550
G01 X30.4973 Y18.9238
G01 X30.5333 Y18.9997
G01 X30.5604 Y19.0753
G01 X30.5805 Y19.1549
G01 X30.5855 Y19.1867
G01 X38.8750 Y19.1867
G01 X38.8750 Y19.1350
G01 X38.8756 Y19.1258
G01 X38.8768 Y19.1186
G01 X38.8788 Y19.1115
G01 X38.8822 Y19.1029
G01 X38.8857 Y19.0964
G01 X38.8909 Y19.0889
G01 X38.8983 Y19.0807
G01 X38.9053 Y19.0748
G01 X38.9130 Y19.0697
G01 X38.9230 Y19.0650
G01 X38.9318 Y19.0622
G01 X38.9408 Y19.0606
G01 X38.9500 Y19.0600
G01 X44.0318 Y19.0600
G01 X44.0392 Y19.0606
G01 X44.0464 Y19.0618
G01 X44.0535 Y19.0638
G01 X44.0587 Y19.0657
G01 X44.0654 Y19.0689
G01 X44.0717 Y19.0726
G01 X44.0761 Y19.0759
G01 X44.0817 Y19.0807
G01 X44.0868 Y19.0860
G01 X44.0902 Y19.0903
G01 X44.0943 Y19.0964
G01 X44.0970 Y19.1013
G01 X44.1000 Y19.1080
G01 X44.1018 Y19.1132
G01 X44.1036 Y19.1204
G01 X44.1046 Y19.1276
G01 X44.1050 Y19.1350
G01 X44.1049 Y20.4087
G01 X44.1044 Y20.4142
G01 X44.1032 Y20.4214
G01 X44.1012 Y20.4285
G01 X44.0986 Y20.4354
G01 X44.0953 Y20.4420
G01 X44.0913 Y20.4482
G01 X44.0868 Y20.4540
G01 X44.0817 Y20.4593
G01 X44.0761 Y20.4641
G01 X44.0717 Y20.4674
G01 X44.0654 Y20.4711
G01 X44.0587 Y20.4743
G01 X44.0535 Y20.4762
G01 X44.0464 Y20.4782
G01 X44.0392 Y20.4794
G01 X44.0318 Y20.4800
G01 X38.9482 Y20.4800
G01 X38.9390 Y20.4792
G01 X38.9300 Y20.4773
G01 X38.9196 Y20.4736
G01 X38.9114 Y20.4693
G01 X38.9039 Y20.4641
G01 X38.8970 Y20.4580
G01 X38.8898 Y20.4497
G01 X38.8847 Y20.4420
G01 X38.8814 Y20.4354
G01 X38.8788 Y20.4285
G01 X38.8764 Y20.4196
G01 X38.8754 Y20.4124
G01 X38.8750 Y20.4050
G01 X38.8750 Y20.3533
G01 X2.1883 Y20.3533
G01 X2.1883 Y22.9218
G01 X2.1940 Y22.9274
G01 X2.1986 Y22.9331
G01 X2.2027 Y22.9392
G01 X2.2070 Y22.9474
G01 X2.2096 Y22.9543
G01 X2.2116 Y22.9614
G01 X2.2130 Y22.9704
G01 X2.2134 Y22.9778
G01 X2.2134 Y25.1622
G01 X2.2128 Y25.1714
G01 X2.2107 Y25.1822
G01 X2.2070 Y25.1926
G01 X2.2027 Y25.2008
G01 X2.1964 Y25.2098
G01 X2.1888 Y25.2178
G01 X2.1801 Y25.2246
G01 X2.1721 Y25.2292
G01 X2.1637 Y25.2328
G01 X2.1566 Y25.2350
G01 X2.1476 Y25.2366
G01 X2.1384 Y25.2372
G01 X1.0698 Y25.2372
G01 X1.0588 Y25.2361
G01 X1.0498 Y25.2340
G01 X1.0395 Y25.2300
G01 X1.0315 Y25.2256
G01 X1.0240 Y25.2202
G01 X1.0160 Y25.2126
G01 X1.0103 Y25.2054
G01 X1.0046 Y25.1959
G01 X1.0010 Y25.1875
G01 X0.9984 Y25.1786
G01 X0.9970 Y25.1696
G01 X0.9966 Y25.1622
G01 X0.9966 Y22.9778
G01 X0.9970 Y22.9704
G01 X0.9980 Y22.9632
G01 X1.0004 Y22.9543
G01 X1.0030 Y22.9474
G01 X1.0073 Y22.9392
G01 X1.0114 Y22.9331
G01 X1.0160 Y22.9274
G01 X1.0217 Y22.9218
G00 Z2.0000
G00 X0.8925 Y22.8995
G01 F15.00
G01 Z-0.3500
G01 F80.00
G01 X0.8985 Y22.8894
G01 X0.9024 Y22.8804
G01 X0.9076 Y22.8703
G01 X0.9107 Y22.8619
G01 X0.9137 Y22.8511
G01 X0.9147 Y22.8457
G01 X0.9175 Y22.8233
G01 X0.9179 Y22.8156
G01 X0.9179 Y18.2608
G01 X1.0225 Y18.0083
G01 X10.0883 Y8.9425
G01 X10.3408 Y8.8379
G01 X13.5338 Y8.8379
G01 X13.5420 Y8.8374
G01 X13.5628 Y8.8351
G01 X13.5699 Y8.8335
G01 X13.5769 Y8.8313
G01 X13.6012 Y8.8217
G01 X13.6109 Y8.8168
G01 X13.6205 Y8.8102
G01 X13.6406 Y8.7932
G01 X13.6473 Y8.7866
G01 X13.6514 Y8.7817
G01 X13.6554 Y8.7760
G01 X13.6691 Y8.7533
G01 X13.6718 Y8.7482
G01 X13.7222 Y8.6269
G01 X13.9869 Y8.3622
G01 X14.3328 Y8.2189
G01 X14.7072 Y8.2189
G01 X15.0531 Y8.3622
G01 X15.3178 Y8.6269
G01 X15.3674 Y8.7465
G01 X15.3797 Y8.7696
G01 X15.3845 Y8.7764
G01 X15.3890 Y8.7817
G01 X15.4076 Y8.8008
G01 X15.4159 Y8.8079
G01 X15.4255 Y8.8141
G01 X15.4482 Y8.8260
G01 X15.4567 Y8.8296
G01 X15.4667 Y8.8325
G01 X15.5009 Y8.8377
G01 X24.4178 Y8.8379
G01 X24.4332 Y8.8370
G01 X24.4404 Y8.8362
G01 X24.4505 Y8.8344
G01 X24.4574 Y8.8325
G01 X24.4681 Y8.8284
G01 X24.4775 Y8.8254
G01 X24.4862 Y8.8216
G01 X24.4948 Y8.8168
G01 X24.5009 Y8.8129
G01 X24.5107 Y8.8048
G01 X24.5194 Y8.7984
G01 X24.5246 Y8.7936
G01 X27.2808 Y6.0375
G01 X27.5333 Y5.9329
G01 X29.0536 Y5.9329
G01 X29.0710 Y5.9319
G01 X29.0846 Y5.9297
G01 X29.0932 Y5.9275
G01 X29.1166 Y5.9191
G01 X29.1306 Y5.9118
G01 X29.1381 Y5.9069
G01 X29.1592 Y5.8899
G01 X29.2269 Y5.8222
G01 X29.5741 Y5.6784
G01 X29.5859 Y5.6775
G01 X29.5962 Y5.6757
G01 X29.6031 Y5.6741
G01 X29.6285 Y5.6650
G01 X29.6427 Y5.6575
G01 X29.6506 Y5.6522
G01 X29.6580 Y5.6460
G01 X29.6656 Y5.6405
G01 X29.6709 Y5.6359
G01 X29.7709 Y5.5359
G01 X33.7291 Y5.5359
G01 X33.8341 Y5.6409
G01 X33.8341 Y7.0591
G01 X33.7291 Y7.1641
G01 X30.6094 Y7.1641
G01 X30.5902 Y7.1653
G01 X30.5784 Y7.1673
G01 X30.5715 Y7.1689
G01 X30.5498 Y7.1766
G01 X30.5432 Y7.1794
G01 X30.5324 Y7.1852
G01 X30.5278 Y7.1880
G01 X30.5064 Y7.2048
G01 X30.2931 Y7.4178
G01 X29.9472 Y7.5611
G01 X29.5728 Y7.5611
G01 X29.2269 Y7.4178
G01 X29.1590 Y7.3499
G01 X29.1439 Y7.3371
G01 X29.1306 Y7.3283
G01 X29.1185 Y7.3227
G01 X29.1085 Y7.3175
G01 X29.0983 Y7.3138
G01 X29.0891 Y7.3113
G01 X29.0819 Y7.3100
G01 X29.0717 Y7.3090
G01 X29.0613 Y7.3075
G01 X29.0536 Y7.3071
G01 X28.0172 Y7.3071
G01 X27.9964 Y7.3085
G01 X27.9845 Y7.3106
G01 X27.9760 Y7.3130
G01 X27.9539 Y7.3210
G01 X27.9402 Y7.3282
G01 X27.9313 Y7.3342
G01 X27.9243 Y7.3402
G01 X27.9156 Y7.3466
G01 X27.9104 Y7.3514
G01 X25.1542 Y10.1075
G01 X24.9017 Y10.2121
G01 X10.8247 Y10.2121
G01 X10.8057 Y10.2133
G01 X10.7920 Y10.2156
G01 X10.7851 Y10.2175
G01 X10.7744 Y10.2216
G01 X10.7650 Y10.2246
G01 X10.7563 Y10.2284
G01 X10.7431 Y10.2360
G01 X10.7388 Y10.2392
G01 X10.7318 Y10.2452
G01 X10.7244 Y10.2505
G01 X10.7179 Y10.2564
G01 X2.3349 Y18.6393
G01 X2.3243 Y18.6515
G01 X2.3159 Y18.6633
G01 X2.3116 Y18.6710
G01 X2.3077 Y18.6797
G01 X2.3017 Y18.6917
G01 X2.2988 Y18.7001
G01 X2.2956 Y18.7128
G01 X2.2923 Y18.7389
G01 X2.2923 Y18.9378
G01 X2.2948 Y18.9601
G01 X2.2978 Y18.9728
G01 X2.3009 Y18.9818
G01 X2.3110 Y19.0047
G01 X2.3147 Y19.0113
G01 X2.3212 Y19.0209
G01 X2.3393 Y19.0412
G01 X2.3472 Y19.0485
G01 X2.3585 Y19.0566
G01 X2.3816 Y19.0697
G01 X2.3883 Y19.0726
G01 X2.3963 Y19.0755
G01 X2.4036 Y19.0774
G01 X2.4271 Y19.0818
G01 X2.4344 Y19.0826
G01 X2.4432 Y19.0829
G01 X13.5027 Y19.0828
G01 X13.5248 Y19.0805
G01 X13.5347 Y19.0785
G01 X13.5417 Y19.0763
G01 X13.5695 Y19.0651
G01 X13.5774 Y19.0608
G01 X13.5853 Y19.0552
G01 X13.6054 Y19.0382
G01 X13.6140 Y19.0294
G01 X13.6202 Y19.0210
G01 X13.6339 Y18.9983
G01 X13.6374 Y18.9914
G01 X13.7222 Y18.7869
G01 X13.9869 Y18.5222
G01 X14.3328 Y18.3789
G01 X14.7072 Y18.3789
G01 X15.0531 Y18.5222
G01 X15.3178 Y18.7869
G01 X15.4026 Y18.9915
G01 X15.4140 Y19.0130
G01 X15.4177 Y19.0186
G01 X15.4221 Y19.0243
G01 X15.4423 Y19.0453
G01 X15.4511 Y19.0530
G01 X15.4592 Y19.0583
G01 X15.4832 Y19.0709
G01 X15.4917 Y19.0746
G01 X15.5019 Y19.0775
G01 X15.5309 Y19.0822
G01 X15.5379 Y19.0828
G01 X28.7407 Y19.0829
G01 X28.7631 Y19.0808
G01 X28.7747 Y19.0785
G01 X28.7817 Y19.0763
G01 X28.8095 Y19.0651
G01 X28.8174 Y19.0608
G01 X28.8253 Y19.0552
G01 X28.8454 Y19.0382
G01 X28.8540 Y19.0294
G01 X28.8602 Y19.0210
G01 X28.8739 Y18.9983
G01 X28.8774 Y18.9914
G01 X28.9622 Y18.7869
G01 X29.2269 Y18.5222
G01 X29.5728 Y18.3789
G01 X29.9472 Y18.3789
G01 X30.2931 Y18.5222
G01 X30.5578 Y18.7869
G01 X30.6426 Y18.9915
G01 X30.6540 Y19.0130
G01 X30.6577 Y19.0186
G01 X30.6621 Y19.0243
G01 X30.6823 Y19.0453
G01 X30.6911 Y19.0530
G01 X30.6992 Y19.0583
G01 X30.7232 Y19.0709
G01 X30.7317 Y19.0746
G01 X30.7419 Y19.0775
G01 X30.7709 Y19.0822
G01 X30.7779 Y19.0828
G01 X38.6879 Y19.0829
G01 X38.7069 Y19.0815
G01 X38.7172 Y19.0797
G01 X38.7241 Y19.0781
G01 X38.7495 Y19.0690
G01 X38.7563 Y19.0657
G01 X38.7670 Y19.0595
G01 X38.7866 Y19.0445
G01 X38.7919 Y19.0399
G01 X38.8759 Y18.9559
G01 X44.1041 Y18.9559
G01 X44.2091 Y19.0609
G01 X44.2091 Y20.4791
G01 X44.1041 Y20.5841
G01 X38.8759 Y20.5841
G01 X38.7917 Y20.4999
G01 X38.7786 Y20.4887
G01 X38.7682 Y20.4812
G01 X38.7617 Y20.4774
G01 X38.7510 Y20.4726
G01 X38.7425 Y20.4682
G01 X38.7325 Y20.4643
G01 X38.7217 Y20.4613
G01 X38.7163 Y20.4603
G01 X38.6939 Y20.4575
G01 X38.6862 Y20.4571
G01 X2.4432 Y20.4571
G01 X2.4352 Y20.4575
G01 X2.4149 Y20.4598
G01 X2.4079 Y20.4612
G01 X2.3968 Y20.4645
G01 X2.3737 Y20.4743
G01 X2.3669 Y20.4777
G01 X2.3586 Y20.4829
G01 X2.3526 Y20.4874
G01 X2.3338 Y20.5043
G01 X2.3288 Y20.5094
G01 X2.3224 Y20.5174
G01 X2.3184 Y20.5235
G01 X2.3062 Y20.5450
G01 X2.3024 Y20.5533
G01 X2.2995 Y20.5613
G01 X2.2976 Y20.5686
G01 X2.2932 Y20.5921
G01 X2.2923 Y20.6012
G01 X2.2921 Y22.8156
G01 X2.2935 Y22.8363
G01 X2.2953 Y22.8466
G01 X2.2969 Y22.8535
G01 X2.3068 Y22.8806
G01 X2.3135 Y22.8931
G01 X2.3175 Y22.8993
G01 X2.3175 Y25.2363
G01 X2.2125 Y25.3413
G01 X0.9975 Y25.3413
G01 X0.8925 Y25.2363
G01 X0.8925 Y22.8995
G00 Z2.0000
G00 X29.5728 Y25.9989
G01 F15.00
G01 Z-0.3500
G01 F80.00
G01 X29.9472 Y25.9989
G01 X30.2931 Y26.1422
G01 X30.5578 Y26.4069
G01 X30.7011 Y26.7528
G01 X30.7011 Y27.1272
G01 X30.5578 Y27.4731
G01 X30.2931 Y27.7378
G01 X29.9472 Y27.8811
G01 X29.5728 Y27.8811
G01 X29.2269 Y27.7378
G01 X28.9622 Y27.4731
G01 X28.8189 Y27.1272
G01 X28.8189 Y26.7528
G01 X28.9622 Y26.4069
G01 X29.2269 Y26.1422
G01 X29.5728 Y25.9989
G00 Z2.0000
G00 X30.5969 Y26.9437
G01 F15.00
G01 Z-0.3500
G01 F80.00
G01 X30.5930 Y27.0220
G01 X30.5809 Y27.1033
G01 X30.5610 Y27.1830
G01 X30.5333 Y27.2603
G01 X30.4982 Y27.3346
G01 X30.4559 Y27.4050
G01 X30.4070 Y27.4710
G01 X30.3518 Y27.5318
G01 X30.2910 Y27.5870
G01 X30.2250 Y27.6359
G01 X30.1546 Y27.6782
G01 X30.0803 Y27.7133
G01 X30.0030 Y27.7410
G01 X29.9233 Y27.7609
G01 X29.8420 Y27.7730
G01 X29.7600 Y27.7770
G01 X29.6780 Y27.7730
G01 X29.5967 Y27.7609
G01 X29.5170 Y27.7410
G01 X29.4397 Y27.7133
G01 X29.3654 Y27.6782
G01 X29.2950 Y27.6359
G01 X29.2290 Y27.5870
G01 X29.1682 Y27.5318
G01 X29.1130 Y27.4710
G01 X29.0641 Y27.4050
G01 X29.0218 Y27.3346
G01 X28.9867 Y27.2603
G01 X28.9590 Y27.1830
G01 X28.9391 Y27.1033
G01 X28.9270 Y27.0220
G01 X28.9230 Y26.9400
G01 X28.9270 Y26.8580
G01 X28.9391 Y26.7767
G01 X28.9590 Y26.6970
G01 X28.9867 Y26.6197
G01 X29.0218 Y26.5454
G01 X29.0641 Y26.4750
G01 X29.1130 Y26.4090
G01 X29.1682 Y26.3482
G01 X29.2290 Y26.2930
G01 X29.2950 Y26.2441
G01 X29.3654 Y26.2018
G01 X29.4397 Y26.1667
G01 X29.5170 Y26.1390
G01 X29.5967 Y26.1191
G01 X29.6780 Y26.1070
G01 X29.7600 Y26.1030
G01 X29.8420 Y26.1070
G01 X29.9233 Y26.1191
G01 X30.0030 Y26.1390
G01 X30.0803 Y26.1667
G01 X30.1546 Y26.2018
G01 X30.2250 Y26.2441
G01 X30.2910 Y26.2930
G01 X30.3518 Y26.3482
G01 X30.4070 Y26.4090
G01 X30.4559 Y26.4750
G01 X30.4982 Y26.5454
G01 X30.5333 Y26.6197
G01 X30.5610 Y26.6970
G01 X30.5809 Y26.7767
G01 X30.5930 Y26.8580
G01 X30.5969 Y26.9363
G01 X30.5969 Y26.9437
G00 Z2.0000
G00 X29.5728 Y28.5389
G01 F15.00
G01 Z-0.3500
G01 F80.00
G01 X29.9472 Y28.5389
G01 X30.2931 Y28.6822
G01 X30.5578 Y28.9469
G01 X30.7011 Y29.2928
G01 X30.7011 Y29.6672
G01 X30.5578 Y30.0131
G01 X30.2931 Y30.2778
G01 X29.9472 Y30.4211
G01 X29.5728 Y30.4211
G01 X29.2269 Y30.2778
G01 X28.9622 Y30.0131
G01 X28.8189 Y29.6672
G01 X28.8189 Y29.2928
G01 X28.9622 Y28.9469
G01 X29.2269 Y28.6822
G01 X29.5728 Y28.5389
G00 Z2.0000
G00 X30.5969 Y29.4837
G01 F15.00
G01 Z-0.3500
G01 F80.00
G01 X30.5930 Y29.5620
G01 X30.5809 Y29.6433
G01 X30.5610 Y29.7230
G01 X30.5333 Y29.8003
G01 X30.4982 Y29.8746
G01 X30.4559 Y29.9450
G01 X30.4070 Y30.0110
G01 X30.3518 Y30.0718
G01 X30.2910 Y30.1270
G01 X30.2250 Y30.1759
G01 X30.1546 Y30.2182
G01 X30.0803 Y30.2533
G01 X30.0030 Y30.2810
G01 X29.9233 Y30.3009
G01 X29.8420 Y30.3130
G01 X29.7600 Y30.3170
G01 X29.6780 Y30.3130
G01 X29.5967 Y30.3009
G01 X29.5170 Y30.2810
G01 X29.4397 Y30.2533
G01 X29.3654 Y30.2182
G01 X29.2950 Y30.1759
G01 X29.2290 Y30.1270
G01 X29.1682 Y30.0718
G01 X29.1130 Y30.0110
G01 X29.0641 Y29.9450
G01 X29.0218 Y29.8746
G01 X28.9867 Y29.8003
G01 X28.9590 Y29.7230
G01 X28.9391 Y29.6433
G01 X28.9270 Y29.5620
G01 X28.9230 Y29.4800
G01 X28.9270 Y29.3980
G01 X28.9391 Y29.3167
G01 X28.9590 Y29.2370
G01 X28.9867 Y29.1597
G01 X29.0218 Y29.0854
G01 X29.0641 Y29.0150
G01 X29.1130 Y28.9490
G01 X29.1682 Y28.8882
G01 X29.2290 Y28.8330
G01 X29.2950 Y28.7841
G01 X29.3654 Y28.7418
G01 X29.4397 Y28.7067
G01 X29.5170 Y28.6790
G01 X29.5967 Y28.6591
G01 X29.6780 Y28.6470
G01 X29.7600 Y28.6430
G01 X29.8420 Y28.6470
G01 X29.9233 Y28.6591
G01 X30.0030 Y28.6790
G01 X30.0803 Y28.7067
G01 X30.1546 Y28.7418
G01 X30.2250 Y28.7841
G01 X30.2910 Y28.8330
G01 X30.3518 Y28.8882
G01 X30.4070 Y28.9490
G01 X30.4559 Y29.0150
G01 X30.4982 Y29.0854
G01 X30.5333 Y29.1597
G01 X30.5610 Y29.2370
G01 X30.5809 Y29.3167
G01 X30.5930 Y29.3980
G01 X30.5969 Y29.4763
G01 X30.5969 Y29.4837
G00 Z2.0000
G00 X29.7700 Y31.1834
G01 F15.00
G01 Z-0.3500
G01 F80.00
G01 X29.7701 Y31.1113
G01 X29.7708 Y31.1040
G01 X29.7718 Y31.0986
G01 X29.7738 Y31.0915
G01 X29.7757 Y31.0863
G01 X29.7797 Y31.0780
G01 X29.7837 Y31.0718
G01 X29.7894 Y31.0646
G01 X29.7960 Y31.0582
G01 X29.8033 Y31.0526
G01 X29.8113 Y31.0480
G01 X29.8197 Y31.0444
G01 X29.8286 Y31.0418
G01 X29.8358 Y31.0406
G01 X29.8450 Y31.0400
G01 X30.4252 Y31.0400
G01 X33.9826 Y27.4825
G01 X33.9826 Y26.7062
G01 X33.9867 Y26.6259
G01 X33.9991 Y26.5428
G01 X34.0187 Y26.4649
G01 X34.0450 Y26.3910
G01 X34.0479 Y26.3842
G01 X34.0798 Y26.3165
G01 X34.0833 Y26.3101
